;FLAVOR:Marlin
;TIME:4626
;Filament used: 11.6723m
;Layer height: 0.5
;MINX:19.997
;MINY:79.176
;MINZ:0.32
;MAXX:193.997
;MAXY:213.476
;MAXZ:4.82
;Generated with Cura_SteamEngine main
M140 S70
M105
M190 S70
M104 S210
M105
M109 S210
M82 ;absolute extrusion mode
M201 X500.00 Y500.00 Z100.00 E5000.00 ;Setup machine max acceleration
M203 X500.00 Y500.00 Z10.00 E50.00 ;Setup machine max feedrate
M204 P500.00 R1000.00 T500.00 ;Setup Print/Retract/Travel acceleration
M205 X8.00 Y8.00 Z0.40 E5.00 ;Setup Jerk
M220 S100 ;Reset Feedrate
M221 S100 ;Reset Flowrate

G28 ;Home

G92 E0 ;Reset Extruder
G1 Z2.0 F3000 ;Move Z Axis up
G1 X10.1 Y20 Z0.28 F5000.0 ;Move to start position
G1 X10.1 Y200.0 Z0.28 F1500.0 E15 ;Draw the first line
G1 X10.4 Y200.0 Z0.28 F5000.0 ;Move to side a little
G1 X10.4 Y20 Z0.28 F1500.0 E30 ;Draw the second line
G92 E0 ;Reset Extruder
G1 Z2.0 F3000 ;Move Z Axis up

G92 E0
G92 E0
G1 F2700 E-5
;LAYER_COUNT:10
;LAYER:0
M107
G0 F6000 X28.09 Y79.842 Z0.32
G0 X19.998 Y91.688
;TYPE:SKIRT
G1 F2700 E0
G1 F1200 X20.007 Y91.023 E0.07078
G1 X20.06 Y90.044 E0.17513
G1 X20.193 Y89.074 E0.27934
G1 X20.405 Y88.117 E0.38366
G1 X20.694 Y87.181 E0.48793
G1 X21.058 Y86.272 E0.59214
G1 X21.495 Y85.395 E0.69643
G1 X22.002 Y84.557 E0.80067
G1 X22.576 Y83.764 E0.90486
G1 X23.213 Y83.019 E1.00919
G1 X23.908 Y82.329 E1.11342
G1 X24.658 Y81.698 E1.21774
G1 X25.456 Y81.13 E1.32199
G1 X26.298 Y80.63 E1.42622
G1 X27.178 Y80.199 E1.53051
G1 X28.09 Y79.842 E1.63475
G1 X29.028 Y79.56 E1.73899
G1 X29.986 Y79.356 E1.84324
G1 X30.958 Y79.231 E1.94755
G1 X31.67 Y79.19 E2.02345
G1 X32.327 Y79.176 E2.09339
G1 X66.96 Y79.177 E5.77947
G1 X67.666 Y79.187 E5.85462
G1 X68.644 Y79.241 E5.95887
G1 X69.615 Y79.374 E6.06318
G1 X70.571 Y79.587 E6.16742
G1 X71.507 Y79.876 E6.27168
G1 X71.968 Y80.051 E6.32417
G1 X73.111 Y80.51 E6.45526
G1 X75.508 Y81.434 E6.72868
G1 X77.894 Y82.277 E6.99801
G1 X80.211 Y83.022 E7.25705
G1 X82.664 Y83.735 E7.52893
G1 X85.031 Y84.351 E7.78925
G1 X87.484 Y84.916 E8.05716
G1 X89.917 Y85.403 E8.32125
G1 X92.346 Y85.82 E8.58356
G1 X94.826 Y86.173 E8.85017
G1 X97.286 Y86.453 E9.11368
G1 X99.781 Y86.666 E9.3802
G1 X102.277 Y86.807 E9.64628
G1 X104.742 Y86.877 E9.90874
G1 X107.244 Y86.877 E10.17503
G1 X109.719 Y86.807 E10.43856
G1 X112.201 Y86.667 E10.70314
G1 X114.712 Y86.453 E10.97136
G1 X117.141 Y86.178 E11.23154
G1 X119.647 Y85.822 E11.50094
G1 X122.074 Y85.405 E11.76303
G1 X124.524 Y84.914 E12.02898
G1 X126.917 Y84.365 E12.29029
G1 X129.347 Y83.732 E12.55755
G1 X131.753 Y83.033 E12.82421
G1 X134.13 Y82.269 E13.08995
G1 X136.468 Y81.444 E13.35383
G1 X138.83 Y80.534 E13.62323
G1 X140.009 Y80.058 E13.75856
G1 X140.932 Y79.729 E13.86285
G1 X141.878 Y79.476 E13.96707
G1 X142.842 Y79.301 E14.07135
G1 X143.817 Y79.205 E14.17562
G1 X144.313 Y79.187 E14.22845
G1 X144.955 Y79.177 E14.29679
G1 X181.462 Y79.177 E18.18232
G1 X182.16 Y79.187 E18.25661
G1 X183.138 Y79.241 E18.36086
G1 X184.108 Y79.375 E18.46508
G1 X185.065 Y79.587 E18.56941
G1 X186.001 Y79.877 E18.6737
G1 X186.91 Y80.242 E18.77796
G1 X187.786 Y80.68 E18.8822
G1 X188.624 Y81.188 E18.98649
G1 X189.417 Y81.762 E19.09069
G1 X190.161 Y82.399 E19.19493
G1 X190.85 Y83.095 E19.29916
G1 X191.481 Y83.845 E19.40348
G1 X192.048 Y84.644 E19.50776
G1 X192.548 Y85.486 E19.61198
G1 X192.978 Y86.366 E19.71623
G1 X193.334 Y87.279 E19.82053
G1 X193.615 Y88.217 E19.92474
G1 X193.818 Y89.176 E20.02907
G1 X193.943 Y90.147 E20.13327
G1 X193.983 Y90.849 E20.20811
G1 X193.997 Y91.506 E20.27805
G1 X193.996 Y200.889 E31.91995
G1 X193.987 Y201.616 E31.99733
G1 X193.935 Y202.594 E32.10157
G1 X193.803 Y203.564 E32.20576
G1 X193.593 Y204.521 E32.31004
G1 X193.305 Y205.458 E32.41437
G1 X192.942 Y206.367 E32.51855
G1 X192.506 Y207.244 E32.62279
G1 X191.999 Y208.083 E32.72712
G1 X191.426 Y208.878 E32.83142
G1 X190.791 Y209.623 E32.93561
G1 X190.096 Y210.314 E33.03992
G1 X189.347 Y210.945 E33.14416
G1 X188.55 Y211.514 E33.24838
G1 X187.708 Y212.016 E33.35272
G1 X186.829 Y212.447 E33.45691
G1 X185.917 Y212.805 E33.56119
G1 X184.979 Y213.088 E33.66547
G1 X184.021 Y213.293 E33.76974
G1 X183.05 Y213.42 E33.87397
G1 X182.324 Y213.462 E33.95137
G1 X181.667 Y213.476 E34.02131
G1 X32.549 Y213.475 E49.8923
G1 X31.851 Y213.466 E49.96659
G1 X30.873 Y213.413 E50.07084
G1 X29.902 Y213.281 E50.17513
G1 X28.946 Y213.07 E50.27933
G1 X28.01 Y212.782 E50.38356
G1 X27.1 Y212.418 E50.48788
G1 X26.223 Y211.982 E50.59212
G1 X25.385 Y211.475 E50.69636
G1 X24.591 Y210.902 E50.80058
G1 X23.846 Y210.265 E50.9049
G1 X23.155 Y209.57 E51.00921
G1 X22.524 Y208.822 E51.11337
G1 X21.956 Y208.024 E51.21762
G1 X21.454 Y207.182 E51.32195
G1 X21.023 Y206.302 E51.42624
G1 X20.665 Y205.39 E51.53052
G1 X20.383 Y204.452 E51.63477
G1 X20.179 Y203.494 E51.73902
G1 X20.053 Y202.523 E51.84323
G1 X20.01 Y201.791 E51.92127
G1 X19.997 Y201.134 E51.99121
G1 X19.998 Y91.688 E63.63981
G0 F6000 X20.798 Y91.698
G1 F1200 X20.807 Y91.033 E63.7106
G1 X20.86 Y90.089 E63.81123
G1 X20.992 Y89.151 E63.91205
G1 X21.203 Y88.229 E64.01271
G1 X21.491 Y87.328 E64.11339
G1 X21.854 Y86.454 E64.21412
G1 X22.29 Y85.613 E64.31494
G1 X22.795 Y84.813 E64.41563
G1 X23.366 Y84.058 E64.51638
G1 X23.998 Y83.354 E64.61707
G1 X24.688 Y82.706 E64.71782
G1 X25.43 Y82.119 E64.81852
G1 X26.219 Y81.596 E64.91926
G1 X27.049 Y81.142 E65.01995
G1 X27.915 Y80.759 E65.12074
G1 X28.809 Y80.451 E65.22138
G1 X29.727 Y80.219 E65.32215
G1 X30.661 Y80.066 E65.42289
G1 X31.692 Y79.989 E65.53292
G1 X32.327 Y79.976 E65.60052
G1 X66.949 Y79.977 E69.28543
G1 X67.655 Y79.987 E69.36057
G1 X68.599 Y80.04 E69.46121
G1 X69.536 Y80.173 E69.56193
G1 X70.459 Y80.385 E69.66273
G1 X71.67 Y80.793 E69.79874
G1 X72.822 Y81.256 E69.93088
G1 X75.239 Y82.187 E70.20655
G1 X77.624 Y83.03 E70.47578
G1 X80.027 Y83.803 E70.74444
G1 X82.416 Y84.497 E71.00922
G1 X84.819 Y85.123 E71.27352
G1 X87.331 Y85.701 E71.54786
G1 X89.761 Y86.188 E71.81163
G1 X92.236 Y86.612 E72.07889
G1 X94.736 Y86.968 E72.34766
G1 X97.196 Y87.248 E72.61117
G1 X99.739 Y87.465 E72.88281
G1 X102.208 Y87.605 E73.14602
G1 X104.755 Y87.677 E73.41721
G1 X107.23 Y87.677 E73.68063
G1 X109.788 Y87.605 E73.95299
G1 X112.245 Y87.466 E74.21491
G1 X114.766 Y87.252 E74.48419
G1 X117.266 Y86.968 E74.75199
G1 X119.762 Y86.613 E75.02032
G1 X122.217 Y86.192 E75.28542
G1 X124.717 Y85.691 E75.55679
G1 X127.095 Y85.145 E75.81647
G1 X129.595 Y84.494 E76.09143
G1 X131.97 Y83.804 E76.35466
G1 X134.356 Y83.037 E76.6214
G1 X136.748 Y82.193 E76.89137
G1 X139.164 Y81.262 E77.16695
G1 X140.309 Y80.8 E77.29836
G1 X141.201 Y80.483 E77.39911
G1 X142.116 Y80.243 E77.49979
G1 X143.048 Y80.08 E77.60049
G1 X144.326 Y79.987 E77.73687
G1 X144.968 Y79.977 E77.80521
G1 X181.45 Y79.977 E81.68808
G1 X182.148 Y79.987 E81.76238
G1 X183.093 Y80.041 E81.86312
G1 X184.03 Y80.174 E81.96385
G1 X184.953 Y80.385 E82.06462
G1 X185.854 Y80.674 E82.16532
G1 X186.727 Y81.038 E82.26599
G1 X187.567 Y81.475 E82.36677
G1 X188.367 Y81.98 E82.46746
G1 X189.122 Y82.552 E82.56828
G1 X189.825 Y83.185 E82.66896
G1 X190.472 Y83.875 E82.76963
G1 X191.059 Y84.617 E82.87033
G1 X191.582 Y85.406 E82.97108
G1 X192.035 Y86.237 E83.07181
G1 X192.417 Y87.103 E83.17255
G1 X192.725 Y87.998 E83.27329
G1 X192.955 Y88.916 E83.37402
G1 X193.108 Y89.85 E83.47475
G1 X193.184 Y90.871 E83.58372
G1 X193.197 Y91.506 E83.65132
G1 X193.196 Y200.879 E95.29215
G1 X193.187 Y201.606 E95.36953
G1 X193.135 Y202.551 E95.47026
G1 X193.004 Y203.488 E95.57096
G1 X192.794 Y204.411 E95.67171
G1 X192.507 Y205.312 E95.77235
G1 X192.145 Y206.187 E95.87314
G1 X191.71 Y207.027 E95.97382
G1 X191.206 Y207.828 E96.07454
G1 X190.636 Y208.584 E96.17531
G1 X190.005 Y209.288 E96.27593
G1 X189.316 Y209.937 E96.37667
G1 X188.574 Y210.526 E96.4775
G1 X187.786 Y211.049 E96.57816
G1 X186.957 Y211.505 E96.67886
G1 X186.091 Y211.888 E96.77965
G1 X185.197 Y212.197 E96.88032
G1 X184.28 Y212.43 E96.98102
G1 X183.346 Y212.584 E97.08177
G1 X182.302 Y212.663 E97.1932
G1 X181.667 Y212.676 E97.2608
G1 X32.56 Y212.675 E113.13062
G1 X31.862 Y212.666 E113.20492
G1 X30.917 Y212.614 E113.30565
G1 X29.98 Y212.482 E113.40636
G1 X29.057 Y212.272 E113.50711
G1 X28.155 Y211.984 E113.60789
G1 X27.281 Y211.622 E113.70857
G1 X26.441 Y211.186 E113.8093
G1 X25.64 Y210.682 E113.91002
G1 X24.885 Y210.112 E114.01071
G1 X24.18 Y209.48 E114.11148
G1 X23.532 Y208.79 E114.21223
G1 X22.944 Y208.049 E114.31291
G1 X22.421 Y207.26 E114.41366
G1 X21.966 Y206.43 E114.5144
G1 X21.583 Y205.565 E114.61508
G1 X21.274 Y204.67 E114.71586
G1 X21.042 Y203.753 E114.81653
G1 X20.888 Y202.819 E114.91728
G1 X20.81 Y201.77 E115.02924
G1 X20.797 Y201.134 E115.09694
G1 X20.798 Y91.698 E126.74448
G0 F6000 X21.598 Y91.709
G1 F1200 X21.607 Y91.044 E126.81527
G1 X21.659 Y90.134 E126.91228
G1 X21.791 Y89.232 E127.0093
G1 X22.002 Y88.344 E127.10645
G1 X22.289 Y87.479 E127.20344
G1 X22.651 Y86.642 E127.3005
G1 X23.085 Y85.84 E127.39756
G1 X23.587 Y85.079 E127.49459
G1 X24.155 Y84.365 E127.59169
G1 X24.782 Y83.703 E127.68874
G1 X25.465 Y83.099 E127.78578
G1 X26.199 Y82.557 E127.88289
G1 X26.977 Y82.082 E127.97991
G1 X27.794 Y81.676 E128.07701
G1 X28.643 Y81.344 E128.17403
G1 X29.518 Y81.087 E128.2711
G1 X30.412 Y80.908 E128.36814
G1 X31.715 Y80.789 E128.50739
G1 X32.327 Y80.776 E128.57255
G1 X66.79 Y80.776 E132.24053
G1 X67.643 Y80.787 E132.33132
G1 X68.554 Y80.84 E132.42845
G1 X69.456 Y80.972 E132.52547
G1 X70.343 Y81.183 E132.62251
G1 X71.372 Y81.535 E132.73826
G1 X72.571 Y82.016 E132.87576
G1 X74.97 Y82.941 E133.14941
G1 X77.366 Y83.787 E133.41985
G1 X79.77 Y84.561 E133.68865
G1 X82.202 Y85.267 E133.95818
G1 X84.656 Y85.907 E134.2281
G1 X87.165 Y86.484 E134.50211
G1 X89.618 Y86.976 E134.76839
G1 X92.091 Y87.4 E135.03544
G1 X94.636 Y87.762 E135.30904
G1 X97.146 Y88.048 E135.57791
G1 X99.661 Y88.262 E135.84655
G1 X102.176 Y88.405 E136.11466
G1 X104.732 Y88.477 E136.38681
G1 X107.253 Y88.477 E136.65513
G1 X109.783 Y88.405 E136.92451
G1 X112.323 Y88.262 E137.19528
G1 X114.852 Y88.047 E137.46542
G1 X117.366 Y87.762 E137.7347
G1 X119.902 Y87.401 E138.00734
G1 X122.367 Y86.979 E138.27351
G1 X124.876 Y86.476 E138.54586
G1 X127.298 Y85.92 E138.81035
G1 X129.776 Y85.275 E139.08287
G1 X132.195 Y84.572 E139.35099
G1 X134.658 Y83.78 E139.62635
G1 X137.006 Y82.951 E139.89137
G1 X139.442 Y82.012 E140.16923
G1 X140.608 Y81.542 E140.30304
G1 X141.468 Y81.238 E140.40012
G1 X142.351 Y81.01 E140.49718
G1 X143.251 Y80.861 E140.59427
G1 X144.338 Y80.787 E140.71023
G1 X144.98 Y80.777 E140.77857
G1 X181.439 Y80.777 E144.65899
G1 X182.137 Y80.787 E144.73329
G1 X183.047 Y80.84 E144.83031
G1 X183.95 Y80.973 E144.92745
G1 X184.837 Y81.184 E145.02449
G1 X185.702 Y81.472 E145.12153
G1 X186.539 Y81.834 E145.21858
G1 X187.34 Y82.269 E145.3156
G1 X188.101 Y82.772 E145.41269
G1 X188.814 Y83.34 E145.50971
G1 X189.476 Y83.968 E145.60683
G1 X190.079 Y84.652 E145.70388
G1 X190.62 Y85.386 E145.80092
G1 X191.095 Y86.164 E145.89794
G1 X191.5 Y86.981 E145.995
G1 X191.832 Y87.831 E146.09212
G1 X192.088 Y88.706 E146.18915
G1 X192.266 Y89.6 E146.28617
G1 X192.384 Y90.894 E146.42446
G1 X192.397 Y91.506 E146.48962
G1 X192.396 Y200.869 E158.12939
G1 X192.387 Y201.596 E158.20677
G1 X192.336 Y202.506 E158.30377
G1 X192.205 Y203.409 E158.40089
G1 X191.996 Y204.296 E158.49788
G1 X191.709 Y205.162 E158.59498
G1 X191.348 Y205.999 E158.692
G1 X190.915 Y206.802 E158.78909
G1 X190.414 Y207.564 E158.88616
G1 X189.847 Y208.278 E158.9832
G1 X189.22 Y208.94 E159.08024
G1 X188.538 Y209.545 E159.17727
G1 X187.805 Y210.088 E159.27436
G1 X187.027 Y210.564 E159.37143
G1 X186.211 Y210.971 E159.46849
G1 X185.362 Y211.304 E159.56555
G1 X184.488 Y211.562 E159.66254
G1 X183.594 Y211.742 E159.7596
G1 X182.279 Y211.863 E159.90015
G1 X181.667 Y211.876 E159.9653
G1 X32.57 Y211.875 E175.83406
G1 X31.872 Y211.866 E175.90835
G1 X30.961 Y211.814 E176.00547
G1 X30.059 Y211.683 E176.10248
G1 X29.172 Y211.473 E176.1995
G1 X28.306 Y211.187 E176.29656
G1 X27.469 Y210.825 E176.39362
G1 X26.666 Y210.392 E176.49072
G1 X25.905 Y209.89 E176.58775
G1 X25.191 Y209.323 E176.68479
G1 X24.529 Y208.696 E176.78183
G1 X23.924 Y208.013 E176.87895
G1 X23.382 Y207.28 E176.97597
G1 X22.906 Y206.502 E177.07305
G1 X22.5 Y205.685 E177.17015
G1 X22.167 Y204.836 E177.26721
G1 X21.91 Y203.961 E177.36427
G1 X21.73 Y203.067 E177.46133
G1 X21.61 Y201.748 E177.6023
G1 X21.597 Y201.134 E177.66766
G1 X21.598 Y91.709 E189.31403
G1 F2700 E184.31403
;MESH:AlimentatoreExPC-Pannello Superiore.stl
G0 F6000 X31.332 Y92.09
G0 X32.911 Y92.09
G0 X34.449 Y99.737
G0 X36.681 Y104.381
G0 X41.615 Y104.173
G0 X43.193 Y99
G0 X43.528 Y98.457
G0 X44.014 Y98.056
G0 X44.586 Y97.832
G0 X45.185 Y97.801
G0 X45.774 Y97.952
G0 X46.279 Y98.272
G0 X46.757 Y98.837
G0 X46.901 Y99.483
G0 X48.38 Y143.768
;TYPE:WALL-INNER
G1 F2700 E189.31403
G1 F661.6 X48.572 Y143.404 E189.39347
G1 F737.9 X48.7 Y143.184 E189.43753
G1 F783 X48.828 Y142.963 E189.47918
G1 F834.8 X48.957 Y142.742 E189.51833
G1 F862.5 X49.219 Y142.323 E189.59151
G1 X49.436 Y142.083 E189.63942
G1 X49.152 Y141.754 E189.70377
G1 F901.4 X49.043 Y141.467 E189.74727
G1 F990.7 X48.933 Y141.18 E189.7869
G1 F1009.5 X48.878 Y141.135 E189.79589
G1 F908.2 X48.634 Y140.869 E189.84665
G1 F794 X48.389 Y140.602 E189.90493
G1 F783.7 X48.279 Y140.861 E189.95079
G1 F869.6 X48.169 Y141.121 E189.99226
G1 F977.6 X48.058 Y141.38 E190.02907
G1 F990.7 X48.105 Y141.735 E190.07524
G1 F901.4 X48.153 Y142.09 E190.12599
G1 F862.5 X48.154 Y142.515 E190.18893
G1 F834.8 X48.191 Y142.8 E190.2329
G1 F783 X48.228 Y143.086 E190.27993
G1 F737.9 X48.266 Y143.372 E190.32987
G1 F661.6 X48.38 Y143.768 E190.40942
G1 F2700 E185.40942
G0 F6000 X48.772 Y99.537
G0 X49.009 Y98.411
G0 X49.777 Y97.495
G0 X50.549 Y97.024
G0 X51.185 Y96.834
G0 X52.02 Y96.796
G0 X52.891 Y97.023
G0 X53.659 Y97.508
G0 X54.214 Y98.172
G0 X54.534 Y98.853
G0 X54.627 Y99.446
G0 X55.033 Y143.609
G1 F2700 E190.40942
G1 F634.9 X55.106 Y143.365 E190.46065
G1 F703.3 X55.18 Y143.121 E190.50695
G1 F788.2 X55.253 Y142.876 E190.54838
G1 F851.1 X55.271 Y142.592 E190.59109
G1 F864.1 X55.271 Y141.474 E190.75634
G1 F838.4 X55.237 Y141.17 E190.80293
G1 F790.8 X55.202 Y140.865 E190.85252
G1 F725.6 X55.128 Y140.594 E190.90196
G1 F652.6 X55.053 Y140.322 E190.95718
G1 X54.923 Y140.572 E191.01233
G1 F725.6 X54.793 Y140.823 E191.06208
G1 F790.8 X54.674 Y141.066 E191.10578
G1 F838.4 X54.555 Y141.31 E191.14713
G1 F864.1 X54.285 Y141.732 E191.22118
G1 X53.989 Y142.087 E191.2895
G1 X54.27 Y142.417 E191.35357
G1 X54.485 Y142.771 E191.41478
G1 F851.1 X54.624 Y143.019 E191.45745
G1 F764.9 X54.828 Y143.314 E191.51733
G1 F650.8 X55.033 Y143.609 E191.58783
G1 F2700 E186.58783
G0 F6000 X55.487 Y99.538
G0 X55.678 Y98.622
G0 X56.194 Y97.792
G0 X56.918 Y97.188
G0 X57.8 Y96.843
G0 X58.724 Y96.794
G0 X59.598 Y97.021
G0 X60.374 Y97.508
G0 X60.945 Y98.195
G0 X61.251 Y98.868
G0 X61.365 Y99.584
G0 X61.823 Y147.443
G0 X63.098 Y146.008
G0 X63.617 Y145.569
G0 X64.619 Y145.161
G0 X65.724 Y145.205
G0 X66.541 Y145.509
G0 X67.054 Y145.867
G0 X68.47 Y147.608
G1 F2700 E191.58783
G1 F697.7 X68.662 Y147.373 E191.64338
G1 F967.7 X68.854 Y147.138 E191.68343
G1 F1200 X68.854 Y140.221 E192.41962
G1 F972.6 X68.667 Y139.982 E192.45947
G1 F705.4 X68.48 Y139.742 E192.51456
G1 X68.248 Y139.938 E192.56955
G1 F972.6 X68.016 Y140.134 E192.60943
G1 F1200 X67.762 Y140.769 E192.68223
G1 X67.601 Y141.03 E192.71486
G1 X67.211 Y141.492 E192.77921
G1 X66.987 Y141.687 E192.81082
G1 X66.483 Y142.007 E192.87436
G1 X66.034 Y142.202 E192.92646
G1 X65.741 Y142.286 E192.9589
G1 X65.425 Y142.331 E192.99288
G1 X64.661 Y142.301 E193.07425
G1 X64.263 Y142.191 E193.1182
G1 X63.893 Y142.055 E193.16016
G1 X63.37 Y141.745 E193.22487
G1 X63.117 Y141.537 E193.25972
G1 X62.659 Y140.999 E193.33492
G1 X62.461 Y140.658 E193.37689
G1 F1037.8 X62.257 Y140.46 E193.41188
G1 F815.6 X62.052 Y140.261 E193.45662
G1 F671.8 X61.847 Y140.062 E193.51093
G1 F610.3 X61.823 Y140.028 E193.51964
G1 F657.5 X61.692 Y140.33 E193.58358
G1 F802.7 X61.56 Y140.633 E193.63617
G1 F1030 X61.428 Y140.936 E193.67715
G1 F1200 X61.426 Y147.106 E194.33384
G1 F962.9 X61.623 Y147.279 E194.36862
G1 F690.2 X61.821 Y147.452 E194.41727
G1 X62.054 Y147.333 E194.46569
