;FLAVOR:Marlin
;TIME:13508
;Filament used: 42.0394m
;Layer height: 0.5
;MINX:63
;MINY:86.047
;MINZ:0.32
;MAXX:237.006
;MAXY:212.993
;MAXZ:44.82
;Generated with Cura_SteamEngine main
M140 S70
M105
M190 S70
M104 S210
M105
M109 S210
M82 ;absolute extrusion mode
M201 X500.00 Y500.00 Z100.00 E5000.00 ;Setup machine max acceleration
M203 X500.00 Y500.00 Z10.00 E50.00 ;Setup machine max feedrate
M204 P500.00 R1000.00 T500.00 ;Setup Print/Retract/Travel acceleration
M205 X8.00 Y8.00 Z0.40 E5.00 ;Setup Jerk
M220 S100 ;Reset Feedrate
M221 S100 ;Reset Flowrate

G28 ;Home

G92 E0 ;Reset Extruder
G1 Z2.0 F3000 ;Move Z Axis up
G1 X10.1 Y20 Z0.28 F5000.0 ;Move to start position
G1 X10.1 Y200.0 Z0.28 F1500.0 E15 ;Draw the first line
G1 X10.4 Y200.0 Z0.28 F5000.0 ;Move to side a little
G1 X10.4 Y20 Z0.28 F1500.0 E30 ;Draw the second line
G92 E0 ;Reset Extruder
G1 Z2.0 F3000 ;Move Z Axis up

G92 E0
G92 E0
G1 F2700 E-5
;LAYER_COUNT:90
;LAYER:0
M107
G0 F6000 X68.14 Y88.386 Z0.32
G0 X63.001 Y98.896
;TYPE:SKIRT
G1 F2700 E0
G1 F1200 X63.011 Y98.226 E0.07132
G1 X63.066 Y97.248 E0.17557
G1 X63.2 Y96.277 E0.2799
G1 X63.413 Y95.321 E0.38414
G1 X63.703 Y94.386 E0.48833
G1 X64.069 Y93.477 E0.59263
G1 X64.507 Y92.601 E0.69687
G1 X65.166 Y91.542 E0.82962
G1 X65.417 Y91.182 E0.87633
G1 X66.01 Y90.402 E0.98062
G1 X66.664 Y89.673 E1.08485
G1 X67.376 Y88.999 E1.1892
G1 X68.14 Y88.386 E1.29345
G1 X68.951 Y87.838 E1.39763
G1 X69.805 Y87.357 E1.50195
G1 X70.695 Y86.948 E1.6062
G1 X71.615 Y86.612 E1.71044
G1 X72.56 Y86.353 E1.81473
G1 X73.523 Y86.172 E1.91902
G1 X74.497 Y86.069 E2.02326
G1 X75.475 Y86.047 E2.12738
G1 X76.267 Y86.061 E2.21168
G1 X76.365 Y86.057 E2.22212
G1 X78.41 Y86.092 E2.43981
G1 X81.221 Y86.061 E2.73901
G1 X85.991 Y86.062 E3.24669
G1 X86.689 Y86.072 E3.32099
G1 X87.389 Y86.103 E3.39557
G1 X89.023 Y86.222 E3.56994
G1 X91.565 Y86.362 E3.8409
G1 X95.259 Y86.437 E4.23414
G1 X117.295 Y86.438 E6.57949
G1 X119.896 Y86.401 E6.85634
G1 X122.386 Y86.295 E7.1216
G1 X125.255 Y86.097 E7.42768
G1 X125.928 Y86.069 E7.49937
G1 X126.698 Y86.06 E7.58133
G1 X131.109 Y86.06 E8.0508
G1 X131.771 Y86.07 E8.12127
G1 X132.476 Y86.102 E8.19638
G1 X134.055 Y86.219 E8.3649
G1 X136.544 Y86.357 E8.63022
G1 X140.358 Y86.437 E9.03624
G1 X214.027 Y86.438 E16.87701
G1 X216.629 Y86.401 E17.15398
G1 X219.074 Y86.297 E17.41444
G1 X221.879 Y86.097 E17.71374
G1 X222.409 Y86.071 E17.77022
G1 X223.2 Y86.059 E17.85441
G1 X224.45 Y86.073 E17.98746
G1 X225.429 Y86.124 E18.0918
G1 X226.4 Y86.254 E18.19607
G1 X227.356 Y86.464 E18.30025
G1 X228.293 Y86.75 E18.40451
G1 X229.59 Y87.293 E18.55417
G1 X229.962 Y87.475 E18.59824
G1 X230.594 Y87.803 E18.67403
G1 X231.441 Y88.295 E18.77828
G1 X232.245 Y88.855 E18.88257
G1 X233.001 Y89.478 E18.98683
G1 X233.703 Y90.161 E19.09107
G1 X234.347 Y90.899 E19.19532
G1 X234.929 Y91.688 E19.29967
G1 X235.444 Y92.521 E19.40391
G1 X235.89 Y93.393 E19.50815
G1 X236.263 Y94.299 E19.61243
G1 X236.561 Y95.232 E19.71667
G1 X236.782 Y96.186 E19.8209
G1 X236.925 Y97.155 E19.92515
G1 X236.99 Y98.243 E20.04115
G1 X236.999 Y98.876 E20.10853
G1 X237.006 Y106.982 E20.97127
G1 X237 Y107.132 E20.98725
G1 X237.006 Y197.932 E30.65132
G1 X237 Y198.079 E30.66697
G1 X236.999 Y200.413 E30.91539
G1 X236.989 Y201.14 E30.99277
G1 X236.935 Y202.118 E31.09702
G1 X236.802 Y203.089 E31.20133
G1 X236.591 Y204.045 E31.30553
G1 X236.302 Y204.981 E31.40979
G1 X235.937 Y205.89 E31.51405
G1 X235.5 Y206.767 E31.61833
G1 X234.992 Y207.605 E31.72263
G1 X234.418 Y208.399 E31.82691
G1 X233.781 Y209.143 E31.93115
G1 X233.086 Y209.833 E32.03539
G1 X232.336 Y210.463 E32.13964
G1 X231.538 Y211.031 E32.24389
G1 X230.696 Y211.532 E32.34817
G1 X229.816 Y211.962 E32.45241
G1 X228.904 Y212.319 E32.55665
G1 X227.965 Y212.6 E32.66097
G1 X227.007 Y212.804 E32.76522
G1 X226.036 Y212.929 E32.86942
G1 X225.153 Y212.974 E32.96352
G1 X224.44 Y212.982 E33.03941
G1 X221.43 Y212.973 E33.35977
G1 X220.336 Y212.981 E33.47621
G1 X217.835 Y212.952 E33.74242
G1 X216.235 Y212.942 E33.91271
G1 X215.152 Y212.959 E34.028
G1 X214.838 Y212.951 E34.06143
G1 X213.034 Y212.968 E34.25344
G1 X211.946 Y212.952 E34.36925
G1 X210.211 Y212.94 E34.55391
G1 X207.307 Y212.967 E34.86301
G1 X205.735 Y212.966 E35.03032
G1 X203.294 Y212.941 E35.29013
G1 X189.218 Y212.94 E36.78828
G1 X186.51 Y212.969 E37.07651
G1 X185.125 Y212.969 E37.22392
G1 X182.463 Y212.941 E37.50726
G1 X127.635 Y212.941 E43.34274
G1 X126.123 Y212.963 E43.50368
G1 X123.366 Y212.969 E43.79712
G1 X122.073 Y212.951 E43.93475
G1 X120.489 Y212.942 E44.10334
G1 X119.453 Y212.96 E44.21362
G1 X119.186 Y212.954 E44.24204
G1 X117.524 Y212.97 E44.41894
G1 X116.098 Y212.969 E44.57071
G1 X113.454 Y212.941 E44.85214
G1 X108.591 Y212.94 E45.36972
G1 X105.778 Y212.965 E45.66913
G1 X105.204 Y212.956 E45.73022
G1 X102.668 Y212.884 E46.00025
G1 X100.17 Y212.883 E46.26611
G1 X98.254 Y212.929 E46.4701
G1 X97.452 Y212.957 E46.55551
G1 X96.922 Y212.963 E46.61192
G1 X94.639 Y212.941 E46.85492
G1 X87.492 Y212.94 E47.61559
G1 X85.128 Y212.966 E47.86721
G1 X81.391 Y212.983 E48.26495
G1 X77.82 Y212.984 E48.64502
G1 X76.182 Y212.993 E48.81936
G1 X74.914 Y212.983 E48.95432
G1 X73.936 Y212.935 E49.05854
G1 X72.965 Y212.808 E49.16277
G1 X72.007 Y212.601 E49.26708
G1 X71.069 Y212.318 E49.37136
G1 X70.158 Y211.959 E49.47558
G1 X69.279 Y211.527 E49.57982
G1 X68.438 Y211.024 E49.68412
G1 X67.641 Y210.455 E49.78834
G1 X66.893 Y209.822 E49.89264
G1 X66.199 Y209.131 E49.99687
G1 X65.564 Y208.385 E50.10114
G1 X64.992 Y207.59 E50.20538
G1 X64.486 Y206.751 E50.30966
G1 X64.051 Y205.873 E50.41394
G1 X63.688 Y204.963 E50.51822
G1 X63.401 Y204.026 E50.62252
G1 X63.192 Y203.07 E50.72667
G1 X63.061 Y202.099 E50.83095
G1 X63.011 Y201.179 E50.92902
G1 X63 Y200.433 E51.00842
G1 X63.001 Y98.896 E61.81525
G0 F6000 X63.801 Y98.908
G1 F1200 X63.811 Y98.238 E61.88657
G1 X63.865 Y97.293 E61.98731
G1 X63.999 Y96.356 E62.08806
G1 X64.211 Y95.434 E62.18875
G1 X64.501 Y94.533 E62.28949
G1 X64.865 Y93.659 E62.39025
G1 X65.302 Y92.82 E62.49094
G1 X65.823 Y91.999 E62.59443
G1 X66.074 Y91.639 E62.64114
G1 X66.647 Y90.887 E62.74176
G1 X67.282 Y90.185 E62.84251
G1 X67.974 Y89.539 E62.94327
G1 X68.718 Y88.955 E63.04393
G1 X69.509 Y88.435 E63.14468
G1 X70.341 Y87.984 E63.24541
G1 X71.208 Y87.604 E63.34616
G1 X72.104 Y87.299 E63.4469
G1 X73.022 Y87.071 E63.54757
G1 X73.957 Y86.921 E63.64836
G1 X74.9 Y86.851 E63.749
G1 X75.461 Y86.847 E63.80871
G1 X78.405 Y86.892 E64.12208
G1 X81.221 Y86.861 E64.42181
G1 X85.979 Y86.862 E64.92822
G1 X86.677 Y86.872 E65.00252
G1 X87.331 Y86.901 E65.07219
G1 X88.975 Y87.021 E65.24763
G1 X91.506 Y87.16 E65.51742
G1 X95.292 Y87.237 E65.92046
G1 X117.307 Y87.238 E68.26357
G1 X119.905 Y87.201 E68.54011
G1 X122.437 Y87.094 E68.80983
G1 X125.31 Y86.895 E69.11635
G1 X125.938 Y86.869 E69.18324
G1 X126.698 Y86.86 E69.26414
G1 X131.097 Y86.86 E69.73233
G1 X131.759 Y86.87 E69.8028
G1 X132.417 Y86.9 E69.87291
G1 X133.951 Y87.014 E70.03662
G1 X136.512 Y87.156 E70.30961
G1 X140.388 Y87.237 E70.72224
G1 X214.039 Y87.238 E78.56109
G1 X216.638 Y87.201 E78.83774
G1 X219.13 Y87.095 E79.10321
G1 X221.936 Y86.895 E79.40261
G1 X222.43 Y86.871 E79.45525
G1 X223.191 Y86.859 E79.53626
G1 X224.441 Y86.873 E79.66931
G1 X225.386 Y86.923 E79.77003
G1 X226.324 Y87.053 E79.87082
G1 X227.247 Y87.262 E79.97154
G1 X228.149 Y87.548 E80.07225
G1 X229.238 Y88.012 E80.19824
G1 X229.918 Y88.35 E80.27906
G1 X230.221 Y88.51 E80.31553
G1 X231.038 Y88.987 E80.41622
G1 X231.813 Y89.531 E80.517
G1 X232.538 Y90.139 E80.6177
G1 X233.21 Y90.805 E80.7184
G1 X233.823 Y91.526 E80.81913
G1 X234.373 Y92.296 E80.91984
G1 X234.856 Y93.11 E81.02058
G1 X235.268 Y93.962 E81.1213
G1 X235.607 Y94.846 E81.22207
G1 X235.871 Y95.755 E81.32282
G1 X236.056 Y96.683 E81.42353
G1 X236.163 Y97.623 E81.52422
G1 X236.19 Y98.255 E81.59155
G1 X236.2 Y99.039 E81.675
G1 X236.206 Y106.983 E82.5205
G1 X236.2 Y107.128 E82.53594
G1 X236.206 Y197.932 E92.20043
G1 X236.2 Y198.074 E92.21556
G1 X236.199 Y200.402 E92.46334
G1 X236.189 Y201.129 E92.54072
G1 X236.136 Y202.074 E92.64146
G1 X236.003 Y203.011 E92.74218
G1 X235.792 Y203.933 E92.84285
G1 X235.504 Y204.835 E92.94363
G1 X235.141 Y205.709 E93.04435
G1 X234.705 Y206.549 E93.14508
G1 X234.199 Y207.349 E93.24583
G1 X233.628 Y208.104 E93.34658
G1 X232.996 Y208.807 E93.44719
G1 X232.306 Y209.455 E93.54794
G1 X231.564 Y210.043 E93.6487
G1 X230.775 Y210.565 E93.74939
G1 X229.945 Y211.019 E93.85008
G1 X229.079 Y211.402 E93.95087
G1 X228.184 Y211.71 E94.05161
G1 X227.267 Y211.941 E94.15225
G1 X226.333 Y212.094 E94.25299
G1 X225.143 Y212.174 E94.37993
G1 X224.443 Y212.182 E94.45443
G1 X221.506 Y212.173 E94.76703
G1 X220.581 Y212.182 E94.86548
G1 X216.228 Y212.142 E95.3288
G1 X215.14 Y212.159 E95.44461
G1 X214.835 Y212.151 E95.47709
G1 X213.046 Y212.168 E95.6675
G1 X211.963 Y212.152 E95.78278
G1 X210.212 Y212.14 E95.96915
G1 X207.298 Y212.167 E96.27931
G1 X205.743 Y212.166 E96.44481
G1 X203.303 Y212.141 E96.70452
G1 X189.209 Y212.14 E98.20458
G1 X186.509 Y212.169 E98.49196
G1 X185.133 Y212.169 E98.63841
G1 X182.471 Y212.141 E98.92175
G1 X127.623 Y212.141 E104.75936
G1 X125.976 Y212.164 E104.93467
G1 X123.378 Y212.169 E105.21118
G1 X122.09 Y212.151 E105.34828
G1 X120.479 Y212.142 E105.51974
G1 X119.439 Y212.16 E105.63045
G1 X119.18 Y212.154 E105.65802
G1 X117.524 Y212.17 E105.83428
G1 X116.106 Y212.169 E105.98521
G1 X113.462 Y212.141 E106.26663
G1 X108.583 Y212.14 E106.78591
G1 X106.043 Y212.165 E107.05626
G1 X105.401 Y212.16 E107.1246
G1 X102.691 Y212.084 E107.41314
G1 X100.151 Y212.083 E107.68348
G1 X98.207 Y212.13 E107.89044
G1 X97.424 Y212.157 E107.97383
G1 X96.93 Y212.163 E108.02641
G1 X94.647 Y212.141 E108.26941
G1 X87.483 Y212.14 E109.03189
G1 X85.125 Y212.166 E109.28287
G1 X81.391 Y212.183 E109.6803
G1 X77.815 Y212.184 E110.0609
G1 X76.189 Y212.193 E110.23396
G1 X74.921 Y212.183 E110.36892
G1 X73.976 Y212.135 E110.46963
G1 X73.038 Y212.008 E110.57037
G1 X72.114 Y211.802 E110.67113
G1 X71.211 Y211.519 E110.77185
G1 X70.335 Y211.161 E110.87257
G1 X69.492 Y210.73 E110.97334
G1 X68.689 Y210.23 E111.07402
G1 X67.931 Y209.663 E111.17477
G1 X67.224 Y209.035 E111.27541
G1 X66.572 Y208.349 E111.37614
G1 X65.98 Y207.61 E111.47692
G1 X65.453 Y206.824 E111.57764
G1 X64.994 Y205.997 E111.67831
G1 X64.606 Y205.133 E111.77911
G1 X64.293 Y204.24 E111.87983
G1 X64.056 Y203.324 E111.98053
G1 X63.898 Y202.391 E112.08124
G1 X63.81 Y201.166 E112.21196
G1 X63.801 Y200.616 E112.27051
G1 X63.801 Y98.908 E123.09554
G0 F6000 X64.601 Y98.92
G1 F1200 X64.611 Y98.25 E123.16685
G1 X64.665 Y97.339 E123.26398
G1 X64.798 Y96.437 E123.36102
G1 X65.009 Y95.55 E123.45806
G1 X65.298 Y94.685 E123.55513
G1 X65.661 Y93.849 E123.65213
G1 X66.096 Y93.047 E123.74924
G1 X66.479 Y92.457 E123.82411
G1 X66.73 Y92.097 E123.87082
G1 X67.284 Y91.372 E123.96793
G1 X67.899 Y90.699 E124.06496
G1 X68.571 Y90.083 E124.16199
G1 X69.294 Y89.527 E124.25906
G1 X70.063 Y89.037 E124.35611
G1 X70.872 Y88.616 E124.45317
G1 X71.715 Y88.268 E124.55024
G1 X72.585 Y87.995 E124.64729
G1 X73.476 Y87.799 E124.74439
G1 X74.38 Y87.682 E124.8414
G1 X75.446 Y87.647 E124.95492
G1 X76.216 Y87.661 E125.03689
G1 X76.337 Y87.657 E125.04977
G1 X78.4 Y87.692 E125.26938
G1 X81.221 Y87.661 E125.56964
G1 X85.968 Y87.662 E126.07488
G1 X86.666 Y87.672 E126.14917
G1 X87.273 Y87.698 E126.21384
G1 X88.986 Y87.823 E126.39664
G1 X91.475 Y87.959 E126.66195
G1 X95.275 Y88.037 E127.06647
G1 X117.318 Y88.038 E129.41256
G1 X119.916 Y88.001 E129.6891
G1 X122.488 Y87.892 E129.96309
G1 X125.365 Y87.693 E130.27003
G1 X125.948 Y87.669 E130.33213
G1 X126.699 Y87.66 E130.41207
G1 X131.085 Y87.66 E130.87888
G1 X131.747 Y87.67 E130.94935
G1 X132.358 Y87.697 E131.01444
G1 X133.958 Y87.815 E131.1852
G1 X136.479 Y87.956 E131.45393
G1 X140.371 Y88.037 E131.86826
G1 X214.05 Y88.038 E139.71009
G1 X216.649 Y88.001 E139.98674
G1 X219.186 Y87.893 E140.257
G1 X221.993 Y87.693 E140.55652
G1 X222.452 Y87.671 E140.60542
G1 X223.182 Y87.659 E140.68313
G1 X224.432 Y87.673 E140.81618
G1 X225.343 Y87.723 E140.91328
G1 X226.246 Y87.853 E141.01038
G1 X227.133 Y88.061 E141.10735
G1 X228 Y88.346 E141.20449
G1 X228.886 Y88.73 E141.30726
G1 X229.544 Y89.057 E141.38546
G1 X229.847 Y89.217 E141.42193
G1 X230.634 Y89.678 E141.51901
G1 X231.378 Y90.206 E141.61611
G1 X232.072 Y90.797 E141.71313
G1 X232.712 Y91.447 E141.81021
G1 X233.293 Y92.15 E141.90728
G1 X233.81 Y92.901 E142.00432
G1 X234.259 Y93.695 E142.1014
G1 X234.636 Y94.525 E142.19843
G1 X234.94 Y95.385 E142.29551
G1 X235.167 Y96.268 E142.39255
G1 X235.316 Y97.168 E142.48964
G1 X235.39 Y98.266 E142.60677
G1 X235.4 Y99.039 E142.68905
G1 X235.406 Y106.983 E143.53455
G1 X235.4 Y107.123 E143.54946
G1 X235.406 Y197.932 E153.21448
G1 X235.4 Y198.069 E153.22908
G1 X235.399 Y200.391 E153.47622
G1 X235.389 Y201.118 E153.5536
G1 X235.337 Y202.028 E153.65061
G1 X235.204 Y202.931 E153.74776
G1 X234.994 Y203.818 E153.84477
G1 X234.706 Y204.683 E153.9418
G1 X234.344 Y205.52 E154.03886
G1 X233.91 Y206.322 E154.13592
G1 X233.407 Y207.083 E154.23301
G1 X232.84 Y207.797 E154.33005
G1 X232.212 Y208.458 E154.42709
G1 X231.529 Y209.062 E154.52413
G1 X230.795 Y209.604 E154.62124
G1 X230.017 Y210.079 E154.71826
G1 X229.2 Y210.485 E154.81536
G1 X228.351 Y210.817 E154.91238
G1 X227.476 Y211.074 E155.00944
G1 X226.582 Y211.252 E155.10646
G1 X225.675 Y211.352 E155.20358
G1 X225.132 Y211.374 E155.26142
G1 X224.445 Y211.382 E155.33455
G1 X221.501 Y211.373 E155.64788
G1 X220.574 Y211.382 E155.74655
G1 X216.22 Y211.342 E156.20998
G1 X215.127 Y211.359 E156.32632
G1 X214.839 Y211.351 E156.35699
G1 X213.058 Y211.368 E156.54655
G1 X211.981 Y211.352 E156.66119
G1 X210.212 Y211.34 E156.84948
G1 X207.288 Y211.367 E157.1607
G1 X205.751 Y211.366 E157.32428
G1 X203.311 Y211.341 E157.58399
G1 X189.2 Y211.34 E159.08586
G1 X186.508 Y211.369 E159.37239
G1 X185.142 Y211.369 E159.51778
G1 X182.48 Y211.341 E159.80112
G1 X127.611 Y211.341 E165.64096
G1 X125.974 Y211.364 E165.81521
G1 X123.389 Y211.369 E166.09034
G1 X122.105 Y211.351 E166.22701
G1 X120.47 Y211.342 E166.40103
G1 X119.425 Y211.36 E166.51227
G1 X119.182 Y211.354 E166.53814
G1 X117.524 Y211.37 E166.71461
G1 X116.115 Y211.369 E166.86457
G1 X113.471 Y211.341 E167.146
G1 X108.575 Y211.34 E167.66709
G1 X105.799 Y211.365 E167.96256
G1 X105.25 Y211.357 E168.021
G1 X102.679 Y211.284 E168.29474
G1 X100.132 Y211.283 E168.56583
G1 X98.255 Y211.328 E168.76566
G1 X97.396 Y211.358 E168.85714
G1 X96.938 Y211.364 E168.90589
G1 X94.551 Y211.341 E169.15996
G1 X87.475 Y211.34 E169.91307
G1 X85.121 Y211.366 E170.16363
G1 X81.391 Y211.383 E170.56063
G1 X77.81 Y211.384 E170.94176
G1 X76.195 Y211.393 E171.11365
G1 X74.927 Y211.383 E171.24861
G1 X74.016 Y211.336 E171.3457
G1 X73.113 Y211.209 E171.44276
G1 X72.225 Y211.003 E171.53978
G1 X71.358 Y210.721 E171.63681
G1 X70.519 Y210.364 E171.73386
G1 X69.714 Y209.934 E171.83099
G1 X68.95 Y209.436 E171.92806
G1 X68.233 Y208.873 E172.02508
G1 X67.568 Y208.249 E172.12214
G1 X66.96 Y207.569 E172.21923
G1 X66.414 Y206.839 E172.31625
G1 X65.934 Y206.063 E172.41337
G1 X65.524 Y205.249 E172.51037
G1 X65.187 Y204.402 E172.60739
G1 X64.925 Y203.528 E172.7045
G1 X64.741 Y202.635 E172.80154
G1 X64.636 Y201.729 E172.89862
G1 X64.61 Y201.153 E172.95999
G1 X64.601 Y200.603 E173.01853
G1 X64.601 Y98.92 E183.8409
G1 F2700 E178.8409
G0 F6000 X77 Y100.426
G1 F2700 E183.8409
G1 F1200 X79.494 Y100.44 E184.10635
G1 X79.892 Y100.402 E184.1489
G1 X80.452 Y100.202 E184.21219
G1 X80.714 Y100.061 E184.24386
G1 X86.027 Y100.061 E184.80933
G1 X86.292 Y100.202 E184.84128
G1 X86.661 Y100.354 E184.88375
G1 X87.232 Y100.437 E184.94517
G1 X124.397 Y100.437 E188.90073
G1 X125.389 Y100.407 E189.00636
G1 X125.786 Y100.355 E189.04897
G1 X126.202 Y100.207 E189.09597
G1 X126.505 Y100.06 E189.13181
G1 X131.088 Y100.059 E189.61959
G1 X131.351 Y100.2 E189.65135
G1 X131.72 Y100.352 E189.69383
G1 X132.296 Y100.437 E189.75579
G1 X222.027 Y100.438 E199.30608
G1 X222.424 Y100.398 E199.34855
G1 X223 Y100.186 E199.41388
G1 X223 Y101.089 E199.50998
G1 X222.564 Y101.071 E199.55643
G1 X222.175 Y101.07 E199.59783
G1 X221.626 Y101.049 E199.65631
G1 X78.51 Y101.047 E214.88849
