;FLAVOR:Marlin
;TIME:13760
;Filament used: 39.5233m
;Layer height: 0.5
;MINX:11.586
;MINY:19.03
;MINZ:0.32
;MAXX:289.205
;MAXY:288.131
;MAXZ:13.82
;Generated with Cura_SteamEngine main
M140 S70
M105
M190 S70
M104 S210
M105
M109 S210
M82 ;absolute extrusion mode
M201 X500.00 Y500.00 Z100.00 E5000.00 ;Setup machine max acceleration
M203 X500.00 Y500.00 Z10.00 E50.00 ;Setup machine max feedrate
M204 P500.00 R1000.00 T500.00 ;Setup Print/Retract/Travel acceleration
M205 X8.00 Y8.00 Z0.40 E5.00 ;Setup Jerk
M220 S100 ;Reset Feedrate
M221 S100 ;Reset Flowrate

G28 ;Home

G92 E0 ;Reset Extruder
G1 Z2.0 F3000 ;Move Z Axis up
G1 X10.1 Y20 Z0.28 F5000.0 ;Move to start position
G1 X10.1 Y200.0 Z0.28 F1500.0 E15 ;Draw the first line
G1 X10.4 Y200.0 Z0.28 F5000.0 ;Move to side a little
G1 X10.4 Y20 Z0.28 F1500.0 E30 ;Draw the second line
G92 E0 ;Reset Extruder
G1 Z2.0 F3000 ;Move Z Axis up

G92 E0
G92 E0
G1 F2700 E-5
;LAYER_COUNT:28
;LAYER:0
M107
G0 F6000 X62.107 Y33.759 Z0.32
G0 X60.207 Y42.044
;TYPE:SKIRT
G1 F2700 E0
G1 F1200 X60.228 Y41.2 E0.08986
G1 X60.279 Y40.222 E0.19409
G1 X60.37 Y39.247 E0.29831
G1 X60.476 Y38.596 E0.36851
G1 X60.613 Y37.915 E0.44244
G1 X60.716 Y37.459 E0.4922
G1 X60.971 Y36.513 E0.59648
G1 X61.138 Y36.016 E0.65228
G1 X61.398 Y35.327 E0.73066
G1 X61.553 Y34.946 E0.77444
G1 X61.956 Y34.058 E0.87823
G1 X62.107 Y33.759 E0.91388
G1 X62.541 Y32.975 E1.00926
G1 X62.921 Y32.362 E1.08602
G1 X63.213 Y31.917 E1.14267
G1 X64.074 Y30.755 E1.29659
G1 X64.632 Y30.123 E1.38632
G1 X65.247 Y29.485 E1.48064
G1 X65.646 Y29.097 E1.53987
G1 X66.742 Y28.153 E1.69383
G1 X67.402 Y27.667 E1.78106
G1 X68.12 Y27.189 E1.87287
G1 X68.637 Y26.868 E1.93764
G1 X69.49 Y26.386 E2.04191
G1 X70.323 Y25.998 E2.13972
G1 X71.017 Y25.715 E2.21949
G1 X71.489 Y25.536 E2.27321
G1 X72.418 Y25.226 E2.37745
G1 X72.933 Y25.09 E2.43414
G1 X73.637 Y24.927 E2.51105
G1 X74.076 Y24.837 E2.55875
G1 X75.043 Y24.68 E2.66302
G1 X75.574 Y24.628 E2.7198
G1 X76.269 Y24.575 E2.79399
G1 X76.777 Y24.547 E2.84814
G1 X78.74 Y24.481 E3.05718
G1 X81.233 Y24.326 E3.32303
G1 X83.706 Y24.102 E3.58732
G1 X86.172 Y23.809 E3.85162
G1 X88.656 Y23.442 E4.11887
G1 X91.085 Y23.012 E4.38142
G1 X93.538 Y22.506 E4.64799
G1 X95.932 Y21.943 E4.90974
G1 X98.318 Y21.308 E5.17253
G1 X102.022 Y20.186 E5.58444
G1 X103.112 Y19.911 E5.70409
G1 X103.791 Y19.778 E5.77773
G1 X104.168 Y19.713 E5.81845
G1 X105.139 Y19.587 E5.92266
G1 X105.875 Y19.544 E6.00113
G1 X106.568 Y19.529 E6.0749
G1 X108.685 Y19.53 E6.30022
G1 X109.395 Y19.541 E6.3758
G1 X110.373 Y19.597 E6.48006
G1 X111.268 Y19.718 E6.57618
G1 X111.996 Y19.852 E6.65497
G1 X112.47 Y19.952 E6.70653
G1 X113.451 Y20.203 E6.8143
G1 X114.461 Y20.508 E6.92659
G1 X115.384 Y20.8 E7.02963
G1 X117.732 Y21.47 E7.28951
G1 X120.197 Y22.099 E7.56027
G1 X122.57 Y22.635 E7.8192
G1 X125.036 Y23.117 E8.08662
G1 X127.494 Y23.527 E8.35185
G1 X129.953 Y23.866 E8.61604
G1 X132.462 Y24.139 E8.88466
G1 X134.897 Y24.335 E9.14466
G1 X137.374 Y24.464 E9.40865
G1 X140.844 Y24.529 E9.77803
G1 X226.092 Y24.529 E18.85119
G1 X228.694 Y24.492 E19.12815
G1 X231.156 Y24.388 E19.39042
G1 X233.668 Y24.21 E19.65845
G1 X236.109 Y23.967 E19.91954
G1 X238.611 Y23.647 E20.188
G1 X241.03 Y23.267 E20.44862
G1 X243.511 Y22.806 E20.7172
G1 X245.916 Y22.29 E20.97899
G1 X248.347 Y21.693 E21.24542
G1 X250.764 Y21.028 E21.51222
G1 X253.106 Y20.311 E21.77291
G1 X254.084 Y19.982 E21.88273
G1 X254.881 Y19.728 E21.97176
G1 X256.16 Y19.4 E22.11229
G1 X256.902 Y19.258 E22.1927
G1 X257.179 Y19.212 E22.22258
G1 X258.151 Y19.091 E22.32683
G1 X258.905 Y19.052 E22.40719
G1 X259.956 Y19.031 E22.51907
G1 X261.685 Y19.03 E22.7031
G1 X262.395 Y19.041 E22.77867
G1 X263.373 Y19.097 E22.88293
G1 X264.144 Y19.197 E22.96568
G1 X264.858 Y19.323 E23.04285
G1 X265.368 Y19.427 E23.09824
G1 X266.319 Y19.662 E23.20251
G1 X267.247 Y19.973 E23.30667
G1 X268.148 Y20.36 E23.41104
G1 X268.866 Y20.734 E23.49721
G1 X269.395 Y21.033 E23.56188
G1 X270.928 Y21.928 E23.75081
G1 X273.111 Y23.121 E24.01559
G1 X275.32 Y24.249 E24.27957
G1 X277.596 Y25.331 E24.54779
G1 X278.633 Y25.796 E24.66875
G1 X279.509 Y26.207 E24.77174
G1 X280.262 Y26.581 E24.86122
G1 X281.118 Y27.057 E24.96547
G1 X282.168 Y27.776 E25.10091
G1 X282.545 Y28.065 E25.15147
G1 X283.335 Y28.705 E25.25968
G1 X284.067 Y29.357 E25.36402
G1 X284.868 Y30.21 E25.48856
G1 X285.389 Y30.836 E25.57524
G1 X285.747 Y31.29 E25.63677
G1 X286.56 Y32.446 E25.78719
G1 X287.107 Y33.409 E25.90507
G1 X287.393 Y33.964 E25.97152
G1 X287.738 Y34.673 E26.05544
G1 X288.124 Y35.573 E26.15967
G1 X288.457 Y36.579 E26.27245
G1 X288.669 Y37.37 E26.35961
G1 X288.818 Y38.003 E26.42882
G1 X289.003 Y38.965 E26.53309
G1 X289.089 Y39.681 E26.60984
G1 X289.152 Y40.472 E26.69429
G1 X289.185 Y41.081 E26.75921
G1 X289.203 Y41.73 E26.82831
G1 X289.205 Y127.992 E36.00938
G1 X289.186 Y128.896 E36.10562
G1 X289.155 Y129.585 E36.17902
G1 X289.104 Y130.322 E36.25765
G1 X288.962 Y131.451 E36.37876
G1 X288.806 Y132.299 E36.47053
G1 X288.679 Y132.896 E36.53549
G1 X288.437 Y133.845 E36.63973
G1 X288.215 Y134.512 E36.71455
G1 X287.999 Y135.104 E36.78162
G1 X287.614 Y136.083 E36.89359
G1 X287.215 Y136.977 E36.99778
G1 X286.745 Y137.834 E37.10181
G1 X286.204 Y138.719 E37.21221
G1 X285.841 Y139.279 E37.28324
G1 X285.275 Y140.079 E37.38754
G1 X284.564 Y140.918 E37.50459
G1 X283.887 Y141.647 E37.61047
G1 X283.164 Y142.384 E37.72036
G1 X282.445 Y143.049 E37.8246
G1 X281.62 Y143.693 E37.93599
G1 X281.072 Y144.077 E38.00721
G1 X278.61 Y145.726 E38.32259
G1 X276.557 Y147.187 E38.59078
G1 X274.572 Y148.685 E38.85545
G1 X272.65 Y150.224 E39.11752
G1 X270.74 Y151.84 E39.3838
G1 X268.895 Y153.497 E39.64774
G1 X267.091 Y155.211 E39.91258
G1 X265.333 Y156.978 E40.17787
G1 X263.62 Y158.799 E40.44396
G1 X261.96 Y160.668 E40.71002
G1 X260.377 Y162.556 E40.97225
G1 X258.828 Y164.513 E41.23789
G1 X257.337 Y166.509 E41.50305
G1 X255.894 Y168.56 E41.76996
G1 X254.532 Y170.616 E42.03245
G1 X253.23 Y172.71 E42.29488
G1 X251.959 Y174.888 E42.56328
G1 X250.771 Y177.064 E42.82714
G1 X249.634 Y179.292 E43.09337
G1 X248.56 Y181.553 E43.35978
G1 X247.575 Y183.79 E43.61993
G1 X246.628 Y186.112 E43.88683
G1 X245.752 Y188.449 E44.15246
G1 X244.947 Y190.799 E44.41684
G1 X244.21 Y193.167 E44.6808
G1 X243.532 Y195.577 E44.94726
G1 X242.921 Y198.025 E45.2158
G1 X242.397 Y200.396 E45.47424
G1 X241.925 Y202.867 E45.74199
G1 X241.525 Y205.338 E46.00841
G1 X241.2 Y207.78 E46.27061
G1 X240.942 Y210.249 E46.53482
G1 X240.753 Y212.741 E46.80081
G1 X240.634 Y215.243 E47.06741
G1 X240.585 Y218.234 E47.38579
G1 X240.585 Y264.925 E52.35523
G1 X240.563 Y266.088 E52.47903
G1 X240.52 Y266.89 E52.56451
G1 X240.474 Y267.413 E52.62039
G1 X240.348 Y268.385 E52.72471
G1 X240.196 Y269.131 E52.80574
G1 X240.071 Y269.658 E52.86338
G1 X239.892 Y270.351 E52.93956
G1 X239.604 Y271.287 E53.04379
G1 X239.164 Y272.364 E53.16762
G1 X238.837 Y273.065 E53.24994
G1 X238.485 Y273.771 E53.33391
G1 X238.004 Y274.625 E53.43822
G1 X237.387 Y275.527 E53.55454
G1 X236.879 Y276.187 E53.64318
G1 X236.494 Y276.659 E53.70801
G1 X235.844 Y277.392 E53.81228
G1 X235.012 Y278.179 E53.93417
G1 X234.376 Y278.725 E54.02339
G1 X233.813 Y279.183 E54.10063
G1 X233.021 Y279.76 E54.20492
G1 X232.12 Y280.306 E54.31705
G1 X231.532 Y280.628 E54.3884
G1 X230.88 Y280.966 E54.46657
G1 X230.4 Y281.196 E54.52322
G1 X228.175 Y282.204 E54.7832
G1 X225.904 Y283.311 E55.05209
G1 X223.733 Y284.445 E55.31278
G1 X221.533 Y285.675 E55.58104
G1 X221.07 Y285.95 E55.63836
G1 X220.308 Y286.387 E55.73185
G1 X219.438 Y286.838 E55.83615
G1 X218.534 Y287.216 E55.94044
G1 X217.603 Y287.519 E56.04464
G1 X216.999 Y287.672 E56.11096
G1 X216.268 Y287.828 E56.19051
G1 X215.778 Y287.919 E56.24355
G1 X214.808 Y288.059 E56.34786
G1 X213.765 Y288.12 E56.45906
G1 X213.022 Y288.131 E56.53815
G1 X211.106 Y288.131 E56.74208
G1 X210.396 Y288.12 E56.81765
G1 X209.418 Y288.064 E56.92191
G1 X208.462 Y287.932 E57.02463
G1 X207.734 Y287.795 E57.10347
G1 X207.311 Y287.705 E57.1495
G1 X206.026 Y287.357 E57.29119
G1 X205.502 Y287.183 E57.34996
G1 X203.113 Y286.421 E57.61684
G1 X200.712 Y285.731 E57.88273
G1 X198.313 Y285.113 E58.1464
G1 X195.861 Y284.555 E58.41404
G1 X193.448 Y284.078 E58.67584
G1 X190.972 Y283.66 E58.94309
G1 X188.515 Y283.317 E59.20713
G1 X186.029 Y283.041 E59.47335
G1 X183.552 Y282.836 E59.73788
G1 X181.134 Y282.705 E59.99561
G1 X177.432 Y282.632 E60.3897
G1 X92.186 Y282.632 E69.46264
G1 X89.585 Y282.669 E69.7395
G1 X87.122 Y282.773 E70.00188
G1 X84.643 Y282.949 E70.26639
G1 X82.136 Y283.198 E70.53453
G1 X79.701 Y283.509 E70.79579
G1 X77.212 Y283.9 E71.06395
G1 X74.754 Y284.357 E71.33005
G1 X72.347 Y284.875 E71.5921
G1 X69.967 Y285.458 E71.85289
G1 X67.546 Y286.124 E72.12014
G1 X65.784 Y286.67 E72.31647
G1 X64.809 Y286.961 E72.42477
G1 X64.098 Y287.15 E72.50307
G1 X63.326 Y287.317 E72.58713
G1 X62.777 Y287.419 E72.64656
G1 X61.807 Y287.559 E72.75087
G1 X60.761 Y287.62 E72.86239
G1 X60.013 Y287.631 E72.94201
G1 X58.106 Y287.631 E73.14498
G1 X57.396 Y287.62 E73.22055
G1 X56.418 Y287.564 E73.32482
G1 X55.507 Y287.44 E73.42267
G1 X54.801 Y287.31 E73.49907
G1 X54.407 Y287.228 E73.54191
G1 X53.382 Y286.967 E73.65448
G1 X52.513 Y286.704 E73.75111
G1 X51.366 Y286.341 E73.87916
G1 X48.988 Y285.66 E74.14243
G1 X46.572 Y285.041 E74.40788
G1 X44.137 Y284.492 E74.67354
G1 X41.71 Y284.015 E74.9368
G1 X39.262 Y283.606 E75.20096
G1 X36.805 Y283.266 E75.46495
G1 X34.318 Y282.994 E75.73123
G1 X31.834 Y282.792 E75.99648
G1 X29.211 Y282.655 E76.27603
G1 X28.194 Y282.616 E76.38435
G1 X27.233 Y282.554 E76.48685
G1 X26.502 Y282.485 E76.565
G1 X25.532 Y282.345 E76.6693
G1 X24.813 Y282.188 E76.74763
G1 X23.991 Y281.971 E76.83812
G1 X23.399 Y281.796 E76.90382
G1 X22.472 Y281.48 E77.00806
G1 X21.423 Y281.015 E77.13018
G1 X20.699 Y280.652 E77.21638
G1 X20.06 Y280.312 E77.29342
G1 X19.219 Y279.81 E77.39767
G1 X18.151 Y279.024 E77.5388
G1 X17.447 Y278.435 E77.63649
G1 X16.987 Y278.029 E77.7018
G1 X16.28 Y277.351 E77.80605
G1 X15.434 Y276.372 E77.94376
G1 X14.894 Y275.662 E78.0387
G1 X14.581 Y275.227 E78.09574
G1 X14.042 Y274.409 E78.2
G1 X13.515 Y273.434 E78.31796
G1 X13.154 Y272.686 E78.40636
G1 X12.858 Y272.031 E78.48286
G1 X12.501 Y271.119 E78.5871
G1 X12.203 Y270.112 E78.69887
G1 X12.01 Y269.316 E78.78605
G1 X11.918 Y268.89 E78.83243
G1 X11.71 Y267.571 E78.97455
G1 X11.639 Y266.73 E79.06438
G1 X11.602 Y266.002 E79.14196
G1 X11.587 Y265.393 E79.2068
G1 X11.586 Y186.283 E87.62667
G1 X11.596 Y185.577 E87.70182
G1 X11.626 Y184.834 E87.78096
G1 X11.701 Y183.923 E87.87825
G1 X11.831 Y182.952 E87.98252
G1 X11.993 Y182.177 E88.06679
G1 X12.171 Y181.449 E88.14655
G1 X12.366 Y180.73 E88.22584
G1 X12.669 Y179.799 E88.33005
G1 X13.062 Y178.863 E88.43809
G1 X13.436 Y178.084 E88.53006
G1 X13.665 Y177.636 E88.58361
G1 X14.146 Y176.783 E88.68784
G1 X14.563 Y176.154 E88.76816
G1 X14.96 Y175.61 E88.83984
G1 X15.238 Y175.248 E88.88842
G1 X15.939 Y174.415 E89.00429
G1 X16.462 Y173.867 E89.08492
G1 X16.95 Y173.383 E89.15807
G1 X17.547 Y172.829 E89.24475
G1 X18.082 Y172.369 E89.31985
G1 X28.474 Y163.709 E90.7596
G1 X30.43 Y162.032 E91.03382
G1 X32.28 Y160.353 E91.29972
G1 X34.065 Y158.637 E91.56325
G1 X35.821 Y156.852 E91.82975
G1 X37.499 Y155.045 E92.09221
G1 X39.144 Y153.171 E92.35761
G1 X40.754 Y151.23 E92.62601
G1 X42.266 Y149.297 E92.88721
G1 X43.759 Y147.274 E93.15481
G1 X45.159 Y145.258 E93.41604
G1 X46.533 Y143.158 E93.68314
G1 X47.836 Y141.035 E93.94826
G1 X49.089 Y138.862 E94.21523
G1 X50.253 Y136.701 E94.47647
G1 X51.368 Y134.483 E94.74069
G1 X52.432 Y132.209 E95.0079
G1 X53.41 Y129.954 E95.26951
G1 X54.362 Y127.577 E95.54203
G1 X55.201 Y125.3 E95.80031
G1 X56.005 Y122.909 E96.06879
G1 X56.724 Y120.551 E96.33117
G1 X57.389 Y118.131 E96.59828
G1 X57.978 Y115.724 E96.86202
G1 X58.5 Y113.284 E97.12759
G1 X58.949 Y110.863 E97.38966
G1 X59.337 Y108.372 E97.65798
G1 X59.651 Y105.908 E97.92235
G1 X59.891 Y103.469 E98.18319
G1 X60.067 Y100.959 E98.45099
G1 X60.171 Y98.459 E98.71731
G1 X60.206 Y95.955 E98.98384
G1 X60.207 Y42.044 E104.72172
G0 F6000 X61.007 Y42.056
G1 F1200 X61.027 Y41.242 E104.80838
G1 X61.078 Y40.264 E104.91261
G1 X61.167 Y39.322 E105.01332
G1 X61.262 Y38.746 E105.07545
G1 X61.393 Y38.091 E105.14654
G1 X61.496 Y37.635 E105.1963
G1 X61.89 Y36.289 E105.34557
G1 X62.139 Y35.628 E105.42075
G1 X62.294 Y35.247 E105.46453
G1 X62.671 Y34.419 E105.56136
G1 X62.822 Y34.12 E105.59701
G1 X63.226 Y33.388 E105.68599
G1 X63.59 Y32.801 E105.75951
G1 X63.882 Y32.356 E105.81616
G1 X64.642 Y31.33 E105.95205
G1 X65.216 Y30.669 E106.04523
G1 X65.805 Y30.058 E106.13555
G1 X66.204 Y29.67 E106.19479
G1 X67.227 Y28.789 E106.33848
G1 X67.856 Y28.326 E106.42161
G1 X68.542 Y27.869 E106.50934
G1 X69.059 Y27.548 E106.57411
G1 X69.884 Y27.083 E106.6749
G1 X70.633 Y26.736 E106.76276
G1 X71.301 Y26.463 E106.83956
G1 X71.773 Y26.284 E106.89329
G1 X73.121 Y25.868 E107.04344
G1 X73.798 Y25.711 E107.1174
G1 X74.237 Y25.621 E107.1651
G1 X75.634 Y25.425 E107.31524
G1 X76.329 Y25.372 E107.38943
G1 X76.804 Y25.346 E107.44006
G1 X78.78 Y25.279 E107.65049
G1 X81.319 Y25.122 E107.92124
G1 X83.765 Y24.901 E108.18263
G1 X86.315 Y24.597 E108.45596
G1 X88.769 Y24.234 E108.71998
G1 X91.215 Y23.801 E108.98436
G1 X93.732 Y23.282 E109.25789
G1 X96.119 Y22.721 E109.51887
G1 X98.547 Y22.075 E109.78628
G1 X102.254 Y20.952 E110.19853
G1 X103.272 Y20.695 E110.31027
G1 X103.927 Y20.567 E110.38131
G1 X104.304 Y20.502 E110.42202
G1 X105.243 Y20.381 E110.52279
G1 X105.897 Y20.343 E110.59251
G1 X106.568 Y20.329 E110.66395
G1 X108.673 Y20.33 E110.88799
G1 X109.383 Y20.341 E110.96356
G1 X110.327 Y20.396 E111.06421
G1 X111.131 Y20.506 E111.15057
G1 X111.831 Y20.635 E111.22633
G1 X112.305 Y20.735 E111.27789
G1 X113.221 Y20.969 E111.37851
G1 X114.065 Y21.223 E111.47232
G1 X115.124 Y21.558 E111.59054
G1 X117.559 Y22.253 E111.86005
G1 X119.975 Y22.869 E112.12542
G1 X122.417 Y23.42 E112.39186
G1 X124.893 Y23.905 E112.6604
G1 X127.396 Y24.322 E112.93047
G1 X129.86 Y24.661 E113.19519
G1 X132.345 Y24.932 E113.46124
G1 X134.863 Y25.134 E113.7301
G1 X137.347 Y25.264 E113.99484
G1 X140.829 Y25.329 E114.3655
G1 X226.104 Y25.329 E123.44153
G1 X228.703 Y25.292 E123.71817
G1 X231.213 Y25.186 E123.98556
G1 X233.731 Y25.007 E124.25423
G1 X236.221 Y24.76 E124.52055
G1 X238.695 Y24.444 E124.786
G1 X241.199 Y24.05 E125.05579
G1 X243.641 Y23.596 E125.32015
G1 X246.105 Y23.068 E125.58835
G1 X248.53 Y22.472 E125.85413
G1 X250.967 Y21.801 E126.12316
G1 X253.376 Y21.064 E126.39128
G1 X254.339 Y20.74 E126.49942
G1 X255.122 Y20.491 E126.58687
G1 X256.316 Y20.184 E126.71809
G1 X256.683 Y20.111 E126.75791
G1 X257.31 Y20.001 E126.82566
G1 X258.249 Y19.886 E126.92635
G1 X258.921 Y19.852 E126.99797
G1 X259.972 Y19.831 E127.10985
G1 X261.673 Y19.83 E127.29089
G1 X262.383 Y19.841 E127.36647
G1 X263.327 Y19.896 E127.46711
G1 X264.015 Y19.986 E127.54096
G1 X264.698 Y20.107 E127.61478
G1 X265.208 Y20.211 E127.67018
G1 X266.126 Y20.439 E127.77085
G1 X267.022 Y20.744 E127.87159
G1 X267.889 Y21.123 E127.9723
G1 X268.473 Y21.43 E128.04252
G1 X268.847 Y21.641 E128.08823
G1 X270.526 Y22.62 E128.29508
G1 X272.733 Y23.827 E128.56281
G1 X274.984 Y24.976 E128.8318
G1 X277.236 Y26.046 E129.09717
G1 X278.098 Y26.431 E129.19764
G1 X279.169 Y26.932 E129.32349
G1 X279.902 Y27.296 E129.41059
G1 X280.729 Y27.756 E129.51131
G1 X281.681 Y28.411 E129.6343
G1 X282.345 Y28.928 E129.72387
G1 X282.828 Y29.324 E129.79035
G1 X283.534 Y29.954 E129.89105
G1 X284.258 Y30.729 E130.00393
G1 X284.761 Y31.331 E130.08743
G1 X285.119 Y31.785 E130.14896
G1 X285.881 Y32.87 E130.29008
G1 X286.396 Y33.776 E130.40099
G1 X286.682 Y34.331 E130.46745
G1 X287.016 Y35.018 E130.54875
G1 X287.388 Y35.888 E130.64945
G1 X287.688 Y36.797 E130.75133
G1 X287.89 Y37.554 E130.83472
G1 X288.039 Y38.187 E130.90394
G1 X288.217 Y39.116 E131.00461
G1 X288.292 Y39.753 E131.07288
G1 X288.354 Y40.515 E131.15425
G1 X288.387 Y41.124 E131.21916
G1 X288.403 Y41.73 E131.28368
G1 X288.405 Y127.98 E140.46348
G1 X288.387 Y128.86 E140.55716
G1 X288.356 Y129.549 E140.63056
G1 X288.306 Y130.26 E140.70642
G1 X288.174 Y131.314 E140.81948
G1 X288.024 Y132.132 E140.90799
G1 X287.897 Y132.729 E140.97295
