;FLAVOR:Marlin
;TIME:9460
;Filament used: 3.76533m
;Layer height: 0.16
;MINX:116.955
;MINY:95.251
;MINZ:0.2
;MAXX:183.295
;MAXY:204.75
;MAXZ:6.08
;Generated with Cura_SteamEngine main
M140 S70
M105
M190 S70
M104 S210
M105
M109 S210
M82 ;absolute extrusion mode
M201 X500.00 Y500.00 Z100.00 E5000.00 ;Setup machine max acceleration
M203 X500.00 Y500.00 Z10.00 E50.00 ;Setup machine max feedrate
M204 P500.00 R1000.00 T500.00 ;Setup Print/Retract/Travel acceleration
M205 X8.00 Y8.00 Z0.40 E5.00 ;Setup Jerk
M220 S100 ;Reset Feedrate
M221 S100 ;Reset Flowrate

G28 ;Home

G92 E0 ;Reset Extruder
G1 Z2.0 F3000 ;Move Z Axis up
G1 X10.1 Y20 Z0.28 F5000.0 ;Move to start position
G1 X10.1 Y200.0 Z0.28 F1500.0 E15 ;Draw the first line
G1 X10.4 Y200.0 Z0.28 F5000.0 ;Move to side a little
G1 X10.4 Y20 Z0.28 F1500.0 E30 ;Draw the second line
G92 E0 ;Reset Extruder
G1 Z2.0 F3000 ;Move Z Axis up

G92 E0
G92 E0
G1 F2700 E-5
;LAYER_COUNT:37
;LAYER:0
M107
G0 F6000 X121.057 Y101.491 Z0.2
G0 X116.955 Y111.71
;TYPE:SKIRT
G1 F2700 E0
G1 F1200 X116.988 Y110.784 E0.02311
G1 X117.151 Y109.54 E0.05441
G1 X117.434 Y108.356 E0.08478
G1 X117.664 Y107.572 E0.10516
G1 X118.013 Y106.568 E0.13167
G1 X118.272 Y105.945 E0.1485
G1 X118.459 Y105.526 E0.15995
G1 X118.809 Y104.81 E0.17983
G1 X119.086 Y104.305 E0.1942
G1 X119.37 Y103.818 E0.20826
G1 X119.932 Y102.952 E0.23401
G1 X120.346 Y102.377 E0.25169
G1 X121.057 Y101.491 E0.28003
G1 X121.523 Y100.97 E0.29746
G1 X121.897 Y100.569 E0.31114
G1 X122.832 Y99.692 E0.34312
G1 X123.617 Y99.044 E0.36851
G1 X123.998 Y98.746 E0.38058
G1 X124.752 Y98.207 E0.4037
G1 X125.261 Y97.896 E0.41858
G1 X126.045 Y97.449 E0.44109
G1 X126.583 Y97.159 E0.45633
G1 X127.418 Y96.755 E0.47947
G1 X127.873 Y96.57 E0.49173
G1 X128.654 Y96.281 E0.5125
G1 X129.179 Y96.103 E0.52633
G1 X130.36 Y95.777 E0.55689
G1 X131.128 Y95.611 E0.57649
G1 X131.863 Y95.472 E0.59515
G1 X132.889 Y95.34 E0.62095
G1 X133.589 Y95.291 E0.63846
G1 X134.358 Y95.262 E0.65766
G1 X135.104 Y95.251 E0.67627
G1 X165.015 Y95.251 E1.4224
G1 X165.979 Y95.267 E1.44645
G1 X166.512 Y95.29 E1.45976
G1 X166.904 Y95.316 E1.46956
G1 X167.802 Y95.413 E1.49209
G1 X168.582 Y95.539 E1.5118
G1 X169.335 Y95.683 E1.53092
G1 X170.393 Y95.942 E1.55809
G1 X171.093 Y96.159 E1.57637
G1 X171.652 Y96.349 E1.5911
G1 X172.876 Y96.851 E1.6241
G1 X173.634 Y97.226 E1.6452
G1 X174.294 Y97.576 E1.66383
G1 X175.094 Y98.045 E1.68697
G1 X175.53 Y98.342 E1.70013
G1 X175.956 Y98.648 E1.71321
G1 X176.624 Y99.155 E1.73413
G1 X177.59 Y99.993 E1.76603
G1 X178.322 Y100.709 E1.79157
G1 X178.956 Y101.385 E1.81469
G1 X179.447 Y102.001 E1.83434
G1 X180.044 Y102.808 E1.85938
G1 X180.597 Y103.631 E1.88412
G1 X180.829 Y104.014 E1.89529
G1 X181.166 Y104.614 E1.91245
G1 X181.494 Y105.263 E1.93059
G1 X181.791 Y105.894 E1.94799
G1 X182.25 Y107.033 E1.97862
G1 X182.501 Y107.81 E1.99899
G1 X182.716 Y108.558 E2.01841
G1 X182.933 Y109.46 E2.04155
G1 X183.019 Y109.958 E2.05415
G1 X183.126 Y110.683 E2.07244
G1 X183.216 Y111.522 E2.09348
G1 X183.265 Y112.306 E2.11308
G1 X183.286 Y112.915 E2.12828
G1 X183.295 Y113.65 E2.14662
G1 X183.294 Y186.459 E3.96284
G1 X183.281 Y187.301 E3.98385
G1 X183.254 Y187.907 E3.99898
G1 X183.204 Y188.601 E4.01634
G1 X183.081 Y189.626 E4.04209
G1 X182.972 Y190.269 E4.05836
G1 X182.802 Y191.079 E4.079
G1 X182.738 Y191.335 E4.08559
G1 X182.555 Y191.98 E4.10231
G1 X182.343 Y192.648 E4.11979
G1 X182.162 Y193.18 E4.13381
G1 X181.802 Y194.073 E4.15783
G1 X181.672 Y194.358 E4.16564
G1 X181.353 Y194.999 E4.1835
G1 X180.975 Y195.7 E4.20337
G1 X180.597 Y196.363 E4.22241
G1 X180.099 Y197.145 E4.24554
G1 X179.561 Y197.849 E4.26764
G1 X178.972 Y198.558 E4.29063
G1 X178.543 Y199.052 E4.30695
G1 X177.902 Y199.722 E4.33008
G1 X177.415 Y200.16 E4.34642
G1 X176.66 Y200.799 E4.37109
G1 X176.048 Y201.284 E4.39057
G1 X175.29 Y201.817 E4.41369
G1 X174.873 Y202.07 E4.42586
G1 X174.065 Y202.537 E4.44914
G1 X173.469 Y202.861 E4.46606
G1 X172.206 Y203.425 E4.50056
G1 X171.305 Y203.76 E4.52454
G1 X170.685 Y203.973 E4.54089
G1 X169.555 Y204.281 E4.57011
G1 X168.795 Y204.432 E4.58944
G1 X168.13 Y204.542 E4.60625
G1 X167.155 Y204.658 E4.63075
G1 X166.178 Y204.723 E4.65517
G1 X165.577 Y204.743 E4.67017
G1 X164.949 Y204.75 E4.68584
G1 X135.1 Y204.749 E5.43042
G1 X134.386 Y204.739 E5.44824
G1 X133.933 Y204.723 E5.45954
G1 X133.24 Y204.684 E5.47686
G1 X132.119 Y204.562 E5.50499
G1 X131.381 Y204.442 E5.52364
G1 X130.784 Y204.331 E5.53879
G1 X129.617 Y204.036 E5.56881
G1 X128.824 Y203.777 E5.58962
G1 X128.044 Y203.495 E5.61031
G1 X127.186 Y203.142 E5.63346
G1 X126.684 Y202.894 E5.64742
G1 X126.191 Y202.634 E5.66133
G1 X125.354 Y202.163 E5.68528
G1 X124.569 Y201.67 E5.70841
G1 X124.109 Y201.333 E5.72263
G1 X123.438 Y200.811 E5.74384
G1 X123.029 Y200.479 E5.75698
G1 X122.05 Y199.579 E5.79015
G1 X121.543 Y199.051 E5.80841
G1 X121.141 Y198.613 E5.82324
G1 X120.434 Y197.742 E5.85123
G1 X119.928 Y197.037 E5.87287
G1 X119.674 Y196.661 E5.88419
G1 X119.165 Y195.828 E5.90854
G1 X118.86 Y195.274 E5.92432
G1 X118.417 Y194.372 E5.94939
G1 X118.129 Y193.709 E5.96742
G1 X117.761 Y192.736 E5.99337
G1 X117.595 Y192.223 E6.00682
G1 X117.353 Y191.35 E6.02942
G1 X117.245 Y190.886 E6.0413
G1 X117.074 Y189.975 E6.06442
G1 X116.982 Y189.052 E6.08756
G1 X116.965 Y188.513 E6.10101
G1 X116.955 Y186.846 E6.1426
G1 X116.976 Y185.234 E6.18281
G1 X116.963 Y184.931 E6.19038
G1 X116.991 Y183.55 E6.22483
G1 X116.997 Y121.118 E7.78221
G1 X116.976 Y120.015 E7.80973
G1 X116.985 Y119.642 E7.81903
G1 X116.969 Y118.165 E7.85588
G1 X116.969 Y113.36 E7.97574
G1 X116.955 Y111.71 E8.0169
G0 F6000 X117.255 Y111.708
G1 F1200 X117.288 Y110.794 E8.03972
G1 X117.447 Y109.594 E8.06991
G1 X117.722 Y108.44 E8.0995
G1 X117.952 Y107.656 E8.11989
G1 X118.291 Y106.68 E8.14566
G1 X118.546 Y106.067 E8.16222
G1 X118.733 Y105.648 E8.17367
G1 X119.075 Y104.947 E8.19312
G1 X119.345 Y104.456 E8.2071
G1 X119.629 Y103.969 E8.22116
G1 X120.175 Y103.127 E8.2462
G1 X120.589 Y102.552 E8.26387
G1 X121.281 Y101.691 E8.29143
G1 X121.747 Y101.17 E8.30886
G1 X122.115 Y100.775 E8.32233
G1 X123.024 Y99.922 E8.35342
G1 X123.555 Y99.48 E8.37066
G1 X124.183 Y98.983 E8.39064
G1 X124.927 Y98.452 E8.41344
G1 X125.41 Y98.156 E8.42757
G1 X126.188 Y97.713 E8.4499
G1 X126.726 Y97.423 E8.46515
G1 X127.548 Y97.025 E8.48793
G1 X127.979 Y96.851 E8.49952
G1 X128.751 Y96.565 E8.52006
G1 X129.276 Y96.387 E8.53389
G1 X130.423 Y96.07 E8.56357
G1 X131.191 Y95.904 E8.58317
G1 X131.916 Y95.768 E8.60157
G1 X132.913 Y95.639 E8.62665
G1 X133.602 Y95.591 E8.64388
G1 X134.362 Y95.562 E8.66285
G1 X135.108 Y95.551 E8.68146
G1 X165.01 Y95.551 E9.42737
G1 X165.974 Y95.567 E9.45142
G1 X166.493 Y95.589 E9.46438
G1 X166.885 Y95.615 E9.47418
G1 X167.757 Y95.71 E9.49606
G1 X168.526 Y95.834 E9.51549
G1 X169.279 Y95.978 E9.53462
G1 X170.307 Y96.229 E9.56101
G1 X170.997 Y96.443 E9.57903
G1 X171.556 Y96.633 E9.59376
G1 X172.745 Y97.121 E9.62582
G1 X173.494 Y97.491 E9.64666
G1 X174.154 Y97.841 E9.6653
G1 X174.942 Y98.304 E9.6881
G1 X175.355 Y98.586 E9.70057
G1 X175.781 Y98.892 E9.71366
G1 X176.441 Y99.393 E9.73433
G1 X177.38 Y100.208 E9.76534
G1 X178.112 Y100.924 E9.79088
G1 X178.737 Y101.591 E9.81368
G1 X179.206 Y102.179 E9.83245
G1 X179.803 Y102.986 E9.85749
G1 X180.34 Y103.787 E9.88154
G1 X180.572 Y104.17 E9.89271
G1 X180.9 Y104.753 E9.9094
G1 X181.223 Y105.391 E9.92724
G1 X181.52 Y106.022 E9.94463
G1 X181.966 Y107.129 E9.97441
G1 X182.212 Y107.893 E9.99443
G1 X182.427 Y108.641 E10.01384
G1 X182.641 Y109.53 E10.03665
G1 X182.722 Y110.002 E10.0486
G1 X182.829 Y110.727 E10.06688
G1 X182.917 Y111.542 E10.08733
G1 X182.966 Y112.318 E10.10672
G1 X182.986 Y112.919 E10.12172
G1 X182.995 Y113.65 E10.13996
G1 X182.994 Y186.454 E11.95606
G1 X182.981 Y187.296 E11.97707
G1 X182.955 Y187.886 E11.9918
G1 X182.905 Y188.58 E12.00916
G1 X182.785 Y189.576 E12.03418
G1 X182.676 Y190.219 E12.05045
G1 X182.511 Y191.006 E12.07051
G1 X182.447 Y191.262 E12.07709
G1 X182.269 Y191.889 E12.09335
G1 X182.057 Y192.557 E12.11083
G1 X181.879 Y193.08 E12.12462
G1 X181.529 Y193.949 E12.14798
G1 X181.399 Y194.234 E12.1558
G1 X181.089 Y194.857 E12.17316
G1 X180.711 Y195.558 E12.19302
G1 X180.337 Y196.213 E12.21184
G1 X179.845 Y196.983 E12.23463
G1 X179.33 Y197.658 E12.25581
G1 X178.741 Y198.367 E12.2788
G1 X178.318 Y198.854 E12.2949
G1 X177.685 Y199.514 E12.31771
G1 X177.221 Y199.931 E12.33327
G1 X176.466 Y200.57 E12.35794
G1 X175.865 Y201.046 E12.37707
G1 X175.117 Y201.571 E12.39986
G1 X174.723 Y201.811 E12.41137
G1 X173.915 Y202.278 E12.43465
G1 X173.329 Y202.596 E12.45128
G1 X172.102 Y203.144 E12.48481
G1 X171.201 Y203.479 E12.50878
G1 X170.59 Y203.689 E12.5249
G1 X169.492 Y203.988 E12.55329
G1 X168.746 Y204.136 E12.57226
G1 X168.081 Y204.246 E12.58907
G1 X167.133 Y204.359 E12.61289
G1 X166.5 Y204.405 E12.62872
G1 X165.87 Y204.435 E12.64445
G1 X164.949 Y204.45 E12.66743
G1 X135.105 Y204.449 E13.41189
G1 X134.391 Y204.439 E13.42971
G1 X133.95 Y204.423 E13.44071
G1 X133.257 Y204.384 E13.45803
G1 X132.167 Y204.266 E13.48538
G1 X131.429 Y204.146 E13.50403
G1 X130.841 Y204.036 E13.51895
G1 X129.706 Y203.749 E13.54815
G1 X128.926 Y203.494 E13.56862
G1 X128.146 Y203.212 E13.58931
G1 X127.301 Y202.864 E13.61211
G1 X126.824 Y202.628 E13.62539
G1 X126.331 Y202.368 E13.63929
G1 X125.503 Y201.902 E13.66299
G1 X124.729 Y201.415 E13.6858
G1 X124.292 Y201.096 E13.6993
G1 X123.827 Y200.737 E13.71395
G1 X123.218 Y200.246 E13.73347
G1 X122.266 Y199.371 E13.76572
G1 X121.759 Y198.843 E13.78398
G1 X121.363 Y198.412 E13.79858
G1 X120.676 Y197.565 E13.82579
G1 X120.391 Y197.174 E13.83786
G1 X119.923 Y196.493 E13.85847
G1 X119.428 Y195.683 E13.88215
G1 X119.123 Y195.129 E13.89792
G1 X118.692 Y194.253 E13.92228
G1 X118.404 Y193.59 E13.94031
G1 X118.047 Y192.643 E13.96555
G1 X117.881 Y192.13 E13.979
G1 X117.645 Y191.282 E14.00096
G1 X117.537 Y190.818 E14.01285
G1 X117.369 Y189.919 E14.03566
G1 X117.28 Y189.01 E14.05844
G1 X117.265 Y188.512 E14.07087
G1 X117.255 Y186.845 E14.11246
G1 X117.275 Y185.308 E14.1508
G1 X117.263 Y184.937 E14.16006
G1 X117.291 Y183.556 E14.19452
G1 X117.297 Y121.113 E15.75216
G1 X117.276 Y120.01 E15.77968
G1 X117.285 Y119.641 E15.78889
G1 X117.269 Y118.165 E15.82571
G1 X117.269 Y113.358 E15.94562
G1 X117.255 Y111.708 E15.98678
G0 F6000 X117.555 Y111.705
G1 F1200 X117.588 Y110.805 E16.00925
G1 X117.742 Y109.648 E16.03836
G1 X118.009 Y108.525 E16.06716
G1 X118.239 Y107.741 E16.08754
G1 X118.569 Y106.793 E16.11258
G1 X118.82 Y106.189 E16.1289
G1 X119.007 Y105.77 E16.14034
G1 X119.342 Y105.084 E16.15938
G1 X119.604 Y104.607 E16.17296
G1 X119.888 Y104.12 E16.18702
G1 X120.419 Y103.302 E16.21135
G1 X120.833 Y102.727 E16.22903
G1 X121.505 Y101.891 E16.25578
G1 X121.971 Y101.37 E16.27322
G1 X122.333 Y100.981 E16.28647
G1 X123.215 Y100.153 E16.31665
G1 X123.746 Y99.711 E16.33389
G1 X124.368 Y99.219 E16.35367
G1 X125.101 Y98.696 E16.37613
G1 X125.56 Y98.416 E16.38954
G1 X126.33 Y97.977 E16.41165
G1 X126.868 Y97.687 E16.4269
G1 X128.086 Y97.131 E16.4603
G1 X128.847 Y96.849 E16.48054
G1 X129.372 Y96.671 E16.49437
G1 X130.487 Y96.363 E16.52323
G1 X131.255 Y96.197 E16.54283
G1 X131.969 Y96.063 E16.56095
G1 X132.937 Y95.938 E16.5853
G1 X133.615 Y95.89 E16.60225
G1 X134.366 Y95.862 E16.621
G1 X135.112 Y95.851 E16.63961
G1 X165.005 Y95.851 E17.38529
G1 X165.969 Y95.867 E17.40934
G1 X166.473 Y95.888 E17.42193
G1 X166.865 Y95.914 E17.43173
G1 X167.712 Y96.006 E17.45298
G1 X168.469 Y96.129 E17.47211
G1 X169.222 Y96.273 E17.49123
G1 X170.221 Y96.517 E17.51689
G1 X170.9 Y96.727 E17.53462
G1 X171.459 Y96.917 E17.54934
G1 X172.615 Y97.391 E17.58051
G1 X173.353 Y97.756 E17.60105
G1 X174.013 Y98.106 E17.61968
G1 X174.79 Y98.563 E17.64217
G1 X175.18 Y98.829 E17.65395
G1 X175.606 Y99.135 E17.66703
G1 X176.259 Y99.631 E17.68748
G1 X177.17 Y100.422 E17.71758
G1 X177.902 Y101.138 E17.74312
G1 X178.518 Y101.796 E17.76561
G1 X178.965 Y102.358 E17.78352
G1 X179.562 Y103.165 E17.80856
G1 X180.083 Y103.942 E17.8319
G1 X180.315 Y104.325 E17.84307
G1 X180.634 Y104.891 E17.85927
G1 X180.952 Y105.518 E17.87681
G1 X181.249 Y106.149 E17.89421
G1 X181.682 Y107.225 E17.92314
G1 X181.924 Y107.976 E17.94282
G1 X182.139 Y108.724 E17.96224
G1 X182.349 Y109.6 E17.98471
G1 X182.425 Y110.046 E17.99599
G1 X182.532 Y110.771 E18.01428
G1 X182.617 Y111.563 E18.03415
G1 X182.666 Y112.33 E18.05332
G1 X182.686 Y112.923 E18.06812
G1 X182.695 Y113.65 E18.08625
G1 X182.694 Y186.45 E19.90226
G1 X182.681 Y187.292 E19.92326
G1 X182.656 Y187.864 E19.93755
G1 X182.606 Y188.558 E19.9549
G1 X182.489 Y189.525 E19.9792
G1 X182.38 Y190.168 E19.99547
G1 X182.22 Y190.934 E20.01499
G1 X182.156 Y191.19 E20.02157
G1 X181.983 Y191.798 E20.03734
G1 X181.771 Y192.466 E20.05482
G1 X181.596 Y192.981 E20.06839
G1 X181.256 Y193.824 E20.09107
G1 X181.126 Y194.109 E20.09888
G1 X180.825 Y194.714 E20.11574
G1 X180.299 Y195.681 E20.1432
G1 X180.078 Y196.063 E20.15421
G1 X179.592 Y196.822 E20.17669
G1 X179.099 Y197.466 E20.19692
G1 X178.51 Y198.175 E20.21991
G1 X178.093 Y198.656 E20.23579
G1 X177.468 Y199.306 E20.25829
G1 X177.027 Y199.702 E20.27307
G1 X176.272 Y200.341 E20.29774
G1 X175.683 Y200.808 E20.31649
G1 X174.573 Y201.551 E20.34981
G1 X173.765 Y202.018 E20.37309
G1 X173.189 Y202.33 E20.38944
G1 X171.997 Y202.863 E20.42201
G1 X171.096 Y203.198 E20.44599
G1 X170.496 Y203.404 E20.46181
G1 X169.429 Y203.695 E20.4894
G1 X168.697 Y203.84 E20.50801
G1 X168.032 Y203.95 E20.52483
G1 X167.112 Y204.059 E20.54794
G1 X166.154 Y204.124 E20.57189
G1 X165.569 Y204.143 E20.58649
G1 X164.949 Y204.15 E20.60196
G1 X135.109 Y204.149 E21.34632
G1 X134.395 Y204.139 E21.36413
G1 X133.967 Y204.124 E21.37481
G1 X133.274 Y204.085 E21.39213
G1 X132.215 Y203.969 E21.4187
G1 X131.477 Y203.849 E21.43736
G1 X130.899 Y203.742 E21.45202
G1 X129.796 Y203.463 E21.4804
G1 X129.028 Y203.212 E21.50055
G1 X128.248 Y202.93 E21.52124
G1 X127.415 Y202.587 E21.54372
G1 X126.964 Y202.363 E21.55628
G1 X126.179 Y201.943 E21.57849
G1 X125.651 Y201.642 E21.59365
G1 X124.889 Y201.161 E21.61613
G1 X124.475 Y200.858 E21.62892
G1 X123.816 Y200.346 E21.64974
G1 X123.407 Y200.014 E21.66288
G1 X122.483 Y199.163 E21.69422
G1 X121.976 Y198.635 E21.71248
G1 X121.586 Y198.211 E21.72685
G1 X120.919 Y197.389 E21.75325
G1 X120.425 Y196.701 E21.77438
G1 X120.171 Y196.325 E21.7857
G1 X119.69 Y195.538 E21.80871
G1 X119.385 Y194.984 E21.82448
G1 X118.967 Y194.133 E21.84813
G1 X118.679 Y193.47 E21.86617
G1 X118.332 Y192.551 E21.89067
G1 X118.166 Y192.038 E21.90412
G1 X117.937 Y191.214 E21.92545
G1 X117.829 Y190.75 E21.93734
G1 X117.664 Y189.864 E21.95982
G1 X117.578 Y188.968 E21.98227
G1 X117.565 Y188.51 E21.9937
G1 X117.555 Y186.843 E22.03529
G1 X117.573 Y185.431 E22.07051
G1 X117.563 Y184.943 E22.08269
G1 X117.591 Y183.562 E22.11714
G1 X117.597 Y121.107 E23.67509
G1 X117.576 Y120.004 E23.70261
G1 X117.585 Y119.65 E23.71144
G1 X117.569 Y118.165 E23.74849
G1 X117.569 Y113.355 E23.86847
G1 X117.555 Y111.705 E23.90964
G1 F2700 E18.90964
G0 F6000 X159.173 Y117.4
G1 F2700 E23.90964
G1 F1200 X159.644 Y117.4 E23.92139
G1 X159.644 Y183.6 E25.57275
G1 X159.173 Y183.6 E25.5845
G1 X159.235 Y183.382 E25.59015
G1 X159.266 Y183.038 E25.59877
G1 X159.266 Y117.962 E27.2221
G1 X159.226 Y117.57 E27.23193
G1 X159.173 Y117.4 E27.23637
G0 F6000 X158.711 Y117.1
G1 F1200 X159.944 Y117.1 E27.26713
G1 X159.944 Y183.9 E28.93346
G1 X158.72 Y183.9 E28.96399
G1 X158.869 Y183.596 E28.97244
G1 X158.966 Y183.188 E28.9829
G1 X158.966 Y117.962 E30.60997
G1 X158.926 Y117.601 E30.61903
G1 X158.808 Y117.258 E30.62808
G1 X158.711 Y117.1 E30.6327
G0 F6000 X158.064 Y116.8
G1 F1200 X160.244 Y116.8 E30.68708
G1 X160.244 Y184.2 E32.36838
G1 X158.064 Y184.2 E32.42276
G1 X158.271 Y183.993 E32.43006
G1 X158.473 Y183.734 E32.43826
G1 X158.606 Y183.435 E32.44642
G1 X158.666 Y183.038 E32.45644
G1 X158.666 Y117.962 E34.07976
G1 X158.626 Y117.636 E34.08796
G1 X158.509 Y117.33 E34.09613
G1 X158.271 Y117.007 E34.10614
G1 X158.064 Y116.8 E34.11344
G0 F6000 X157.104 Y116.7
G1 F1200 X143.029 Y116.7 E34.46454
G1 X142.743 Y116.74 E34.47174
G1 X142.409 Y116.886 E34.48084
G1 X142.075 Y117.22 E34.49262
G1 X141.9 Y117.45 E34.49983
