;FLAVOR:Marlin
;TIME:9042
;Filament used: 3.86941m
;Layer height: 0.16
;MINX:116.174
;MINY:95.021
;MINZ:0.2
;MAXX:183.825
;MAXY:204.983
;MAXZ:6.6
;POSTPROCESSED
;Generated with Cura_SteamEngine main
M140 S70
M105
M190 S70
M104 S210
M105
M109 S210
M82 ;absolute extrusion mode
M201 X500.00 Y500.00 Z100.00 E5000.00 ;Setup machine max acceleration
M203 X500.00 Y500.00 Z10.00 E50.00 ;Setup machine max feedrate
M204 P500.00 R1000.00 T500.00 ;Setup Print/Retract/Travel acceleration
M205 X8.00 Y8.00 Z0.40 E5.00 ;Setup Jerk
M220 S100 ;Reset Feedrate
M221 S100 ;Reset Flowrate

G28 ;Home

G92 E0 ;Reset Extruder
G1 Z2.0 F3000 ;Move Z Axis up
G1 X10.1 Y20 Z0.28 F5000.0 ;Move to start position
G1 X10.1 Y200.0 Z0.28 F1500.0 E15 ;Draw the first line
G1 X10.4 Y200.0 Z0.28 F5000.0 ;Move to side a little
G1 X10.4 Y20 Z0.28 F1500.0 E30 ;Draw the second line
G92 E0 ;Reset Extruder
G1 Z2.0 F3000 ;Move Z Axis up

G92 E0
G92 E0
G1 F2700 E-5
;LAYER_COUNT:41
;LAYER:0
M107
G0 F6000 X120.136 Y102.093 Z0.2
G0 X116.174 Y113.324
;TYPE:SKIRT
G1 F2700 E0
G1 F1200 X116.188 Y112.748 E0.01437
G1 X116.226 Y112.005 E0.03293
G1 X116.303 Y111.161 E0.05407
G1 X116.349 Y110.809 E0.06293
G1 X116.48 Y110.029 E0.08266
G1 X116.609 Y109.404 E0.09858
G1 X116.806 Y108.606 E0.11908
G1 X116.98 Y108.001 E0.13478
G1 X117.262 Y107.154 E0.15705
G1 X117.368 Y106.875 E0.1645
G1 X117.608 Y106.295 E0.18016
G1 X117.967 Y105.504 E0.20182
G1 X118.11 Y105.208 E0.21002
G1 X118.584 Y104.334 E0.23483
G1 X119.001 Y103.668 E0.25443
G1 X119.41 Y103.061 E0.27269
G1 X119.905 Y102.384 E0.29361
G1 X120.136 Y102.093 E0.30287
G1 X120.596 Y101.552 E0.32059
G1 X120.97 Y101.14 E0.33447
G1 X121.366 Y100.722 E0.34883
G1 X122.002 Y100.116 E0.37075
G1 X122.642 Y99.571 E0.39172
G1 X123.072 Y99.23 E0.40541
G1 X123.777 Y98.705 E0.42733
G1 X124.84 Y98.021 E0.45886
G1 X125.41 Y97.7 E0.47518
G1 X126.042 Y97.367 E0.493
G1 X126.634 Y97.085 E0.50936
G1 X126.942 Y96.95 E0.51775
G1 X127.563 Y96.701 E0.53444
G1 X128.011 Y96.537 E0.54634
G1 X128.58 Y96.342 E0.56134
G1 X129.806 Y96.011 E0.59302
G1 X130.847 Y95.795 E0.61954
G1 X132.1 Y95.611 E0.65113
G1 X132.537 Y95.573 E0.66207
G1 X133.237 Y95.529 E0.67957
G1 X134.318 Y95.494 E0.70655
G1 X163.884 Y95.024 E1.44417
G1 X164.929 Y95.021 E1.47024
G1 X165.448 Y95.032 E1.48319
G1 X166.012 Y95.058 E1.49727
G1 X166.958 Y95.144 E1.52097
G1 X167.705 Y95.249 E1.53978
G1 X168.163 Y95.324 E1.55136
G1 X169.303 Y95.575 E1.58048
G1 X170.038 Y95.785 E1.59955
G1 X170.475 Y95.922 E1.61097
G1 X171.14 Y96.155 E1.62855
G1 X171.86 Y96.447 E1.64793
G1 X172.526 Y96.751 E1.66619
G1 X173.035 Y97.001 E1.68034
G1 X173.713 Y97.364 E1.69952
G1 X174.392 Y97.776 E1.71934
G1 X175.033 Y98.204 E1.73856
G1 X175.492 Y98.53 E1.75261
G1 X176.48 Y99.323 E1.78421
G1 X177.016 Y99.808 E1.80224
G1 X177.493 Y100.26 E1.81863
G1 X178.334 Y101.168 E1.84951
G1 X178.842 Y101.791 E1.86956
G1 X179.139 Y102.173 E1.88163
G1 X179.635 Y102.866 E1.90289
G1 X180.061 Y103.538 E1.92273
G1 X180.365 Y104.055 E1.9377
G1 X180.761 Y104.793 E1.95859
G1 X181.024 Y105.346 E1.97386
G1 X181.19 Y105.716 E1.98398
G1 X181.412 Y106.247 E1.99834
G1 X181.67 Y106.956 E2.01716
G1 X181.836 Y107.461 E2.03042
G1 X182.081 Y108.325 E2.05282
G1 X182.235 Y108.971 E2.06939
G1 X182.403 Y109.828 E2.09117
G1 X182.478 Y110.315 E2.10346
G1 X182.57 Y111.105 E2.1233
G1 X182.606 Y111.561 E2.13471
G1 X182.634 Y112.076 E2.14758
G1 X182.67 Y113.274 E2.17748
G1 X183.824 Y185.9 E3.98937
G1 X183.825 Y186.91 E4.01456
G1 X183.806 Y187.556 E4.03068
G1 X183.779 Y188.012 E4.04208
G1 X183.715 Y188.71 E4.05956
G1 X183.649 Y189.238 E4.07284
G1 X183.518 Y190.054 E4.09345
G1 X183.4 Y190.617 E4.1078
G1 X183.295 Y191.061 E4.11918
G1 X183.157 Y191.586 E4.13272
G1 X182.935 Y192.303 E4.15145
G1 X182.777 Y192.761 E4.16353
G1 X182.51 Y193.463 E4.18227
G1 X182.276 Y194.002 E4.19693
G1 X182.071 Y194.442 E4.20903
G1 X181.642 Y195.268 E4.23225
G1 X181.32 Y195.827 E4.24834
G1 X180.979 Y196.387 E4.2647
G1 X180.271 Y197.396 E4.29545
G1 X179.899 Y197.866 E4.3104
G1 X179.353 Y198.521 E4.33167
G1 X178.528 Y199.395 E4.36165
G1 X177.906 Y199.97 E4.38278
G1 X177.356 Y200.446 E4.40093
G1 X176.401 Y201.182 E4.431
G1 X175.775 Y201.601 E4.44979
G1 X175.211 Y201.955 E4.4664
G1 X174.077 Y202.575 E4.49864
G1 X173.281 Y202.95 E4.52059
G1 X172.628 Y203.236 E4.53838
G1 X171.651 Y203.596 E4.56435
G1 X170.971 Y203.802 E4.58207
G1 X170.496 Y203.932 E4.59436
G1 X169.514 Y204.151 E4.61946
G1 X168.898 Y204.259 E4.63506
G1 X167.931 Y204.384 E4.65938
G1 X166.782 Y204.474 E4.68813
G1 X166.118 Y204.501 E4.70471
G1 X136.117 Y204.98 E5.45318
G1 X135.027 Y204.983 E5.48037
G1 X134.496 Y204.971 E5.49362
G1 X133.989 Y204.947 E5.50628
G1 X133.104 Y204.868 E5.52844
G1 X132.382 Y204.769 E5.54662
G1 X131.968 Y204.702 E5.55708
G1 X131.293 Y204.571 E5.57424
G1 X130.619 Y204.407 E5.59154
G1 X130.105 Y204.267 E5.60483
G1 X129.035 Y203.914 E5.63294
G1 X128.257 Y203.606 E5.65381
G1 X127.717 Y203.375 E5.66846
G1 X126.522 Y202.773 E5.70184
G1 X125.829 Y202.361 E5.72195
G1 X125.244 Y201.993 E5.73919
G1 X124.481 Y201.466 E5.76232
G1 X124.082 Y201.149 E5.77503
G1 X123.398 Y200.571 E5.79737
G1 X122.916 Y200.14 E5.8135
G1 X122.253 Y199.492 E5.83663
G1 X121.884 Y199.08 E5.85042
G1 X121.316 Y198.403 E5.87247
G1 X120.924 Y197.911 E5.88816
G1 X120.378 Y197.161 E5.9113
G1 X120.057 Y196.647 E5.92642
G1 X119.73 Y196.089 E5.94255
G1 X119.305 Y195.322 E5.96443
G1 X118.894 Y194.491 E5.98755
G1 X118.673 Y193.951 E6.00211
G1 X118.458 Y193.382 E6.01728
G1 X118.189 Y192.615 E6.03756
G1 X117.857 Y191.436 E6.06811
G1 X117.747 Y190.938 E6.08083
G1 X117.634 Y190.37 E6.09528
G1 X117.492 Y189.388 E6.12003
G1 X117.418 Y188.63 E6.13903
G1 X117.374 Y187.972 E6.15548
G1 X117.33 Y186.702 E6.18718
G1 X116.176 Y114.135 E7.9976
G1 X116.174 Y113.324 E8.01783
G0 F6000 X116.474 Y113.323
G1 F1200 X116.488 Y112.763 E8.0318
G1 X116.526 Y112.02 E8.05036
G1 X116.6 Y111.2 E8.0709
G1 X116.646 Y110.848 E8.07975
G1 X116.774 Y110.09 E8.09893
G1 X116.903 Y109.465 E8.11485
G1 X117.094 Y108.689 E8.13478
G1 X117.268 Y108.084 E8.15049
G1 X117.542 Y107.261 E8.17212
G1 X117.648 Y106.982 E8.17957
G1 X117.882 Y106.418 E8.1948
G1 X118.112 Y105.905 E8.20883
G1 X118.381 Y105.338 E8.22448
G1 X118.841 Y104.489 E8.24857
G1 X119.25 Y103.836 E8.26779
G1 X119.659 Y103.229 E8.28605
G1 X120.14 Y102.571 E8.30638
G1 X120.371 Y102.28 E8.31565
G1 X120.819 Y101.753 E8.3329
G1 X121.193 Y101.341 E8.34678
G1 X121.582 Y100.931 E8.36088
G1 X122.2 Y100.341 E8.38219
G1 X122.829 Y99.806 E8.40279
G1 X123.259 Y99.465 E8.41648
G1 X123.953 Y98.948 E8.43807
G1 X124.987 Y98.283 E8.46874
G1 X125.557 Y97.962 E8.48505
G1 X126.179 Y97.634 E8.5026
G1 X126.755 Y97.36 E8.51851
G1 X127.063 Y97.225 E8.5269
G1 X127.666 Y96.983 E8.5431
G1 X128.114 Y96.819 E8.555
G1 X128.675 Y96.627 E8.56979
G1 X129.867 Y96.305 E8.6006
G1 X130.908 Y96.089 E8.62712
G1 X132.126 Y95.91 E8.65783
G1 X132.881 Y95.85 E8.67672
G1 X133.535 Y95.816 E8.69305
G1 X134.323 Y95.794 E8.71272
G1 X163.889 Y95.324 E9.45034
G1 X164.93 Y95.321 E9.47631
G1 X165.434 Y95.332 E9.48888
G1 X165.998 Y95.358 E9.50297
G1 X166.918 Y95.441 E9.52601
G1 X167.657 Y95.545 E9.54463
G1 X168.115 Y95.62 E9.5562
G1 X169.223 Y95.864 E9.5845
G1 X169.619 Y95.974 E9.59476
G1 X170.385 Y96.209 E9.61474
G1 X171.031 Y96.435 E9.63182
G1 X171.738 Y96.721 E9.65084
G1 X172.394 Y97.02 E9.66882
G1 X172.903 Y97.27 E9.68297
G1 X173.561 Y97.624 E9.70161
G1 X174.228 Y98.027 E9.72105
G1 X174.859 Y98.448 E9.73997
G1 X175.318 Y98.774 E9.75401
G1 X176.278 Y99.545 E9.78473
G1 X176.814 Y100.03 E9.80276
G1 X177.285 Y100.476 E9.81894
G1 X178.102 Y101.359 E9.84895
G1 X178.605 Y101.975 E9.86879
G1 X178.902 Y102.357 E9.88086
G1 X179.384 Y103.03 E9.90151
G1 X179.802 Y103.69 E9.92099
G1 X180.106 Y104.207 E9.93596
G1 X180.491 Y104.924 E9.95626
G1 X180.75 Y105.468 E9.97129
G1 X180.916 Y105.838 E9.9814
G1 X181.132 Y106.355 E9.99538
G1 X181.385 Y107.05 E10.01383
G1 X181.551 Y107.555 E10.02709
G1 X181.789 Y108.395 E10.04887
G1 X181.943 Y109.041 E10.06543
G1 X182.106 Y109.873 E10.08658
G1 X182.181 Y110.36 E10.09887
G1 X182.271 Y111.129 E10.11819
G1 X182.307 Y111.585 E10.1296
G1 X182.334 Y112.085 E10.14209
G1 X182.37 Y113.279 E10.17189
G1 X183.524 Y185.901 E11.98368
G1 X183.525 Y186.911 E12.00887
G1 X183.507 Y187.539 E12.02455
G1 X183.48 Y187.995 E12.03594
G1 X183.417 Y188.673 E12.05293
G1 X183.351 Y189.201 E12.0662
G1 X183.223 Y190.001 E12.08641
G1 X183.108 Y190.548 E12.10035
G1 X183.003 Y190.992 E12.11173
G1 X182.869 Y191.502 E12.12489
G1 X182.652 Y192.205 E12.14324
G1 X182.494 Y192.663 E12.15533
G1 X182.231 Y193.351 E12.1737
G1 X182.004 Y193.875 E12.18795
G1 X181.799 Y194.315 E12.20005
G1 X181.382 Y195.118 E12.22262
G1 X181.06 Y195.677 E12.23872
G1 X180.724 Y196.229 E12.25484
G1 X180.036 Y197.209 E12.28471
G1 X179.664 Y197.679 E12.29966
G1 X179.124 Y198.327 E12.3207
G1 X178.322 Y199.177 E12.34985
G1 X177.71 Y199.743 E12.37065
G1 X177.16 Y200.219 E12.38879
G1 X176.231 Y200.935 E12.41805
G1 X175.615 Y201.347 E12.43653
G1 X175.051 Y201.701 E12.45315
G1 X173.95 Y202.303 E12.48445
G1 X173.154 Y202.678 E12.5064
G1 X172.511 Y202.96 E12.52391
G1 X171.561 Y203.31 E12.54917
G1 X170.892 Y203.512 E12.5666
G1 X170.417 Y203.642 E12.57888
G1 X169.463 Y203.856 E12.60327
G1 X168.847 Y203.964 E12.61887
G1 X167.907 Y204.085 E12.64251
G1 X166.767 Y204.174 E12.67104
G1 X166.113 Y204.201 E12.68737
G1 X136.112 Y204.68 E13.43584
G1 X135.026 Y204.683 E13.46293
G1 X134.51 Y204.671 E13.47581
G1 X134.003 Y204.647 E13.48847
G1 X133.143 Y204.571 E13.51
G1 X132.43 Y204.473 E13.52796
G1 X132.016 Y204.406 E13.53842
G1 X131.36 Y204.278 E13.55509
G1 X130.698 Y204.118 E13.57208
G1 X130.184 Y203.978 E13.58537
G1 X129.143 Y203.635 E13.61271
G1 X128.375 Y203.33 E13.63332
G1 X127.835 Y203.099 E13.64797
G1 X126.674 Y202.514 E13.6804
G1 X125.989 Y202.107 E13.70028
G1 X125.404 Y201.739 E13.71752
G1 X124.652 Y201.219 E13.74033
G1 X124.274 Y200.919 E13.75236
G1 X123.598 Y200.347 E13.77445
G1 X123.116 Y199.916 E13.79058
G1 X122.462 Y199.277 E13.81339
G1 X122.113 Y198.886 E13.82647
G1 X121.551 Y198.216 E13.84828
G1 X121.159 Y197.724 E13.86397
G1 X120.621 Y196.985 E13.88677
G1 X120.316 Y196.496 E13.90115
G1 X119.989 Y195.938 E13.91728
G1 X119.568 Y195.178 E13.93896
G1 X119.163 Y194.358 E13.96177
G1 X118.954 Y193.845 E13.97559
G1 X118.739 Y193.276 E13.99076
G1 X118.473 Y192.517 E14.01082
G1 X118.15 Y191.371 E14.04053
G1 X118.04 Y190.873 E14.05325
G1 X117.929 Y190.314 E14.06746
G1 X117.79 Y189.358 E14.09156
G1 X117.716 Y188.6 E14.11056
G1 X117.674 Y187.962 E14.12651
G1 X117.63 Y186.697 E14.15809
G1 X116.476 Y114.134 E15.96841
G1 X116.474 Y113.323 E15.98864
G0 F6000 X116.774 Y113.322
G1 F1200 X116.787 Y112.779 E16.00218
G1 X116.825 Y112.036 E16.02074
G1 X116.898 Y111.239 E16.04071
G1 X116.944 Y110.887 E16.04956
G1 X117.068 Y110.15 E16.06821
G1 X117.197 Y109.525 E16.08413
G1 X117.382 Y108.772 E16.10347
G1 X117.556 Y108.167 E16.11917
G1 X117.823 Y107.367 E16.14021
G1 X117.929 Y107.088 E16.14765
G1 X118.155 Y106.541 E16.16242
G1 X118.385 Y106.028 E16.17644
G1 X118.651 Y105.469 E16.19188
G1 X119.097 Y104.644 E16.21528
G1 X119.499 Y104.003 E16.23415
G1 X119.908 Y103.396 E16.25241
G1 X120.375 Y102.757 E16.27215
G1 X120.606 Y102.466 E16.28142
G1 X121.041 Y101.955 E16.29816
G1 X121.415 Y101.543 E16.31204
G1 X121.798 Y101.139 E16.32593
G1 X122.398 Y100.566 E16.34663
G1 X123.015 Y100.041 E16.36683
G1 X123.445 Y99.7 E16.38052
G1 X124.13 Y99.19 E16.40183
G1 X125.134 Y98.544 E16.43161
G1 X125.704 Y98.223 E16.44793
G1 X126.316 Y97.901 E16.46518
G1 X126.875 Y97.635 E16.48062
G1 X127.183 Y97.5 E16.48901
G1 X127.769 Y97.265 E16.50476
G1 X128.486 Y97.006 E16.52378
G1 X128.77 Y96.911 E16.53125
G1 X129.928 Y96.599 E16.56116
G1 X130.969 Y96.383 E16.58768
G1 X132.152 Y96.209 E16.61751
G1 X132.897 Y96.149 E16.63616
G1 X133.544 Y96.116 E16.65232
G1 X134.328 Y96.094 E16.67188
G1 X163.894 Y95.624 E17.4095
G1 X164.93 Y95.621 E17.43534
G1 X165.42 Y95.632 E17.44757
G1 X165.984 Y95.658 E17.46165
G1 X166.877 Y95.739 E17.48402
G1 X167.608 Y95.841 E17.50243
G1 X168.066 Y95.916 E17.51401
G1 X169.143 Y96.153 E17.54152
G1 X169.539 Y96.263 E17.55177
G1 X170.295 Y96.495 E17.5715
G1 X170.923 Y96.714 E17.58809
G1 X171.617 Y96.995 E17.60676
G1 X172.262 Y97.29 E17.62446
G1 X172.771 Y97.54 E17.6386
G1 X173.41 Y97.883 E17.65669
G1 X174.064 Y98.278 E17.67575
G1 X174.685 Y98.693 E17.69438
G1 X175.144 Y99.019 E17.70843
G1 X176.077 Y99.768 E17.73827
G1 X176.613 Y100.253 E17.75631
G1 X177.077 Y100.692 E17.77224
G1 X177.871 Y101.55 E17.8014
G1 X178.368 Y102.159 E17.82101
G1 X178.665 Y102.541 E17.83308
G1 X179.133 Y103.195 E17.85314
G1 X179.544 Y103.842 E17.87226
G1 X179.848 Y104.359 E17.88722
G1 X180.221 Y105.055 E17.90692
G1 X180.477 Y105.591 E17.92174
G1 X180.643 Y105.961 E17.93185
G1 X180.852 Y106.463 E17.94542
G1 X181.1 Y107.143 E17.96347
G1 X181.266 Y107.648 E17.97673
G1 X181.497 Y108.464 E17.99789
G1 X181.651 Y109.11 E18.01446
G1 X181.81 Y109.919 E18.03502
G1 X181.885 Y110.406 E18.04731
G1 X181.972 Y111.152 E18.06605
G1 X182.008 Y111.608 E18.07746
G1 X182.034 Y112.094 E18.0896
G1 X182.07 Y113.284 E18.1193
G1 X183.224 Y185.901 E19.93096
G1 X183.225 Y186.911 E19.95616
G1 X183.207 Y187.521 E19.97138
G1 X183.18 Y187.977 E19.98278
G1 X183.12 Y188.636 E19.99928
G1 X183.054 Y189.164 E20.01256
G1 X182.97 Y189.71 E20.02634
G1 X182.817 Y190.479 E20.0459
G1 X182.712 Y190.923 E20.05728
G1 X182.52 Y191.628 E20.0755
G1 X182.368 Y192.107 E20.08804
G1 X182.21 Y192.565 E20.10013
G1 X181.953 Y193.239 E20.11812
G1 X181.732 Y193.749 E20.13198
G1 X181.527 Y194.189 E20.14409
G1 X181.122 Y194.968 E20.166
G1 X180.8 Y195.527 E20.18209
G1 X180.469 Y196.071 E20.19797
G1 X179.801 Y197.023 E20.22698
G1 X179.229 Y197.738 E20.24982
G1 X178.895 Y198.134 E20.26275
G1 X178.116 Y198.959 E20.29105
G1 X177.513 Y199.516 E20.31153
G1 X176.963 Y199.992 E20.32967
G1 X176.062 Y200.688 E20.35807
G1 X175.456 Y201.093 E20.37625
G1 X174.892 Y201.447 E20.39287
G1 X173.822 Y202.032 E20.42329
G1 X173.026 Y202.407 E20.44523
G1 X172.394 Y202.684 E20.46245
G1 X171.471 Y203.023 E20.48698
G1 X170.812 Y203.223 E20.50416
G1 X170.337 Y203.353 E20.51644
G1 X169.411 Y203.561 E20.54011
G1 X168.795 Y203.669 E20.55572
G1 X167.882 Y203.786 E20.57868
G1 X166.752 Y203.874 E20.60695
G1 X166.108 Y203.901 E20.62303
G1 X136.107 Y204.38 E21.3715
G1 X135.026 Y204.383 E21.39847
G1 X134.524 Y204.372 E21.41099
G1 X134.017 Y204.348 E21.42365
G1 X133.182 Y204.273 E21.44457
G1 X132.477 Y204.177 E21.46232
G1 X132.063 Y204.11 E21.47278
G1 X131.427 Y203.986 E21.48894
G1 X130.777 Y203.828 E21.50563
G1 X130.263 Y203.688 E21.51892
G1 X129.252 Y203.355 E21.54547
G1 X128.493 Y203.054 E21.56584
G1 X127.953 Y202.823 E21.58049
G1 X126.825 Y202.255 E21.61199
G1 X126.148 Y201.853 E21.63163
G1 X125.563 Y201.485 E21.64887
G1 X124.823 Y200.972 E21.67133
G1 X124.466 Y200.688 E21.68271
G1 X123.798 Y200.123 E21.70454
G1 X123.316 Y199.692 E21.72067
G1 X122.672 Y199.063 E21.74312
G1 X122.342 Y198.692 E21.75551
G1 X121.786 Y198.029 E21.77709
G1 X121.394 Y197.537 E21.79279
G1 X120.864 Y196.808 E21.81527
G1 X120.575 Y196.344 E21.82891
G1 X120.248 Y195.786 E21.84504
G1 X119.831 Y195.034 E21.86649
G1 X119.433 Y194.225 E21.88898
G1 X119.234 Y193.739 E21.90208
G1 X119.019 Y193.17 E21.91725
G1 X118.756 Y192.419 E21.9371
G1 X118.443 Y191.306 E21.96594
G1 X118.333 Y190.808 E21.97866
G1 X118.223 Y190.257 E21.99268
G1 X118.089 Y189.329 E22.01607
G1 X118.015 Y188.571 E22.03507
G1 X117.974 Y187.951 E22.05057
G1 X117.93 Y186.693 E22.08197
G1 X116.776 Y114.133 E23.89221
G1 X116.774 Y113.322 E23.91244
G1 F2700 E18.91244
G0 F6000 X158.553 Y116.262
G1 F2700 E23.91244
G1 F1200 X159.063 Y116.254 E23.92517
G1 X160.117 Y182.445 E25.57652
G1 X159.581 Y182.454 E25.58989
G1 X159.688 Y182.078 E25.59964
G1 X159.718 Y181.706 E25.60895
G1 X158.654 Y116.816 E27.22786
G1 X158.607 Y116.424 E27.23771
G1 X158.553 Y116.262 E27.24197
G0 F6000 X158.089 Y115.97
G1 F1200 X159.358 Y115.949 E27.27362
G1 X160.422 Y182.74 E28.93994
G1 X159.138 Y182.761 E28.97198
G1 X159.302 Y182.347 E28.98309
G1 X159.398 Y181.997 E28.99214
G1 X159.418 Y181.711 E28.99929
G1 X158.354 Y116.821 E30.6182
G1 X158.308 Y116.461 E30.62725
