;FLAVOR:Marlin
;TIME:7050
;Filament used: 3.94768m
;Layer height: 0.2
;MINX:84
;MINY:62.5
;MINZ:0.2
;MAXX:150.999
;MAXY:172.5
;MAXZ:6.6
;Generated with Cura_SteamEngine main
M140 S50
M105
M190 S50
M104 S200
M105
M109 S200
M82 ;absolute extrusion mode
; Ender 3 Custom Start G-code
G92 E0 ; Reset Extruder
G28 ; Home all axes
,
M420 S1; Abilitazione Bed Mesh Level
,
G1 Z2.0 F3000 ; Move Z Axis up little to prevent scratching of Heat Bed
G1 X0.1 Y20 Z0.3 F5000.0 ; Move to start position
G1 X0.1 Y200.0 Z0.3 F1500.0 E15 ; Draw the first line
G1 X0.4 Y200.0 Z0.3 F5000.0 ; Move to side a little
G1 X0.4 Y20 Z0.3 F1500.0 E30 ; Draw the second line
G92 E0 ; Reset Extruder
G1 Z2.0 F3000 ; Move Z Axis up little to prevent scratching of Heat Bed
G1 X5 Y20 Z0.3 F5000.0 ; Move over to prevent blob squish
G92 E0
G92 E0
G1 F2700 E-5
;LAYER_COUNT:33
;LAYER:0
M107
G0 F6000 X87.719 Y69.57 Z0.2
G0 X84.001 Y81.058
;TYPE:SKIRT
G1 F2700 E0
G1 F1200 X84.019 Y80.122 E0.03114
G1 X84.047 Y79.502 E0.05178
G1 X84.093 Y78.834 E0.07405
G1 X84.181 Y78.05 E0.10029
G1 X84.294 Y77.339 E0.12423
G1 X84.383 Y76.863 E0.14034
G1 X84.64 Y75.79 E0.17704
G1 X84.752 Y75.408 E0.19028
G1 X85.007 Y74.611 E0.21811
G1 X85.495 Y73.372 E0.2624
G1 X85.851 Y72.608 E0.29043
G1 X86.19 Y71.928 E0.31571
G1 X86.842 Y70.819 E0.35849
G1 X87.315 Y70.126 E0.3864
G1 X87.719 Y69.57 E0.40926
G1 X88.496 Y68.617 E0.45016
G1 X88.76 Y68.328 E0.46318
G1 X89.104 Y67.969 E0.47971
G1 X89.587 Y67.486 E0.50243
G1 X90.613 Y66.58 E0.54796
G1 X91.321 Y66.039 E0.57759
G1 X91.888 Y65.63 E0.60085
G1 X92.671 Y65.114 E0.63204
G1 X93.129 Y64.854 E0.64955
G1 X93.913 Y64.442 E0.67901
G1 X94.392 Y64.207 E0.69675
G1 X95.563 Y63.715 E0.739
G1 X96.356 Y63.434 E0.76698
G1 X97.043 Y63.212 E0.791
G1 X98.191 Y62.923 E0.83037
G1 X98.705 Y62.823 E0.84779
G1 X99.427 Y62.701 E0.87214
G1 X100.382 Y62.59 E0.90412
G1 X100.951 Y62.549 E0.92309
G1 X101.584 Y62.518 E0.94417
G1 X102.676 Y62.5 E0.9805
G1 X132.293 Y62.5 E1.96556
G1 X133.316 Y62.513 E1.99959
G1 X133.842 Y62.533 E2.0171
G1 X134.36 Y62.565 E2.03436
G1 X135.32 Y62.667 E2.06647
G1 X136.18 Y62.802 E2.09542
G1 X136.618 Y62.883 E2.11024
G1 X137.665 Y63.13 E2.14602
G1 X138.371 Y63.341 E2.17052
G1 X138.999 Y63.546 E2.1925
G1 X140.252 Y64.041 E2.2373
G1 X140.647 Y64.226 E2.25181
G1 X141.567 Y64.688 E2.28605
G1 X142.777 Y65.404 E2.33282
G1 X143.485 Y65.895 E2.36147
G1 X143.958 Y66.243 E2.381
G1 X144.917 Y67.035 E2.42237
G1 X145.423 Y67.504 E2.44532
G1 X145.952 Y68.023 E2.46997
G1 X146.784 Y68.955 E2.51152
G1 X147.215 Y69.497 E2.53455
G1 X147.648 Y70.07 E2.55844
G1 X148.149 Y70.802 E2.58794
G1 X148.555 Y71.476 E2.61411
G1 X148.878 Y72.051 E2.63605
G1 X149.39 Y73.084 E2.67439
G1 X149.59 Y73.548 E2.6912
G1 X149.853 Y74.219 E2.71517
G1 X150.025 Y74.703 E2.73225
G1 X150.271 Y75.486 E2.75955
G1 X150.403 Y75.969 E2.77621
G1 X150.581 Y76.703 E2.80133
G1 X150.719 Y77.404 E2.82509
G1 X150.791 Y77.847 E2.84002
G1 X150.882 Y78.553 E2.86369
G1 X150.917 Y78.915 E2.87579
G1 X150.955 Y79.436 E2.89316
G1 X150.984 Y80.153 E2.91703
G1 X150.999 Y81.136 E2.94973
G1 X150.998 Y153.936 E5.37107
G1 X150.979 Y155.032 E5.40753
G1 X150.952 Y155.644 E5.4279
G1 X150.928 Y155.972 E5.43884
G1 X150.857 Y156.647 E5.46141
G1 X150.785 Y157.178 E5.47924
G1 X150.692 Y157.75 E5.49851
G1 X150.637 Y158.04 E5.50833
G1 X150.492 Y158.697 E5.53071
G1 X150.41 Y159.02 E5.54179
G1 X150.234 Y159.636 E5.5631
G1 X150.054 Y160.204 E5.58292
G1 X149.863 Y160.764 E5.60259
G1 X149.462 Y161.748 E5.63794
G1 X149.161 Y162.395 E5.66167
G1 X148.613 Y163.425 E5.70047
G1 X148.29 Y163.962 E5.72132
G1 X147.946 Y164.506 E5.74272
G1 X147.204 Y165.528 E5.78473
G1 X146.831 Y165.984 E5.80433
G1 X146.27 Y166.636 E5.83293
G1 X145.437 Y167.496 E5.87276
G1 X144.817 Y168.052 E5.90045
G1 X144.228 Y168.548 E5.92606
G1 X143.173 Y169.334 E5.96982
G1 X142.488 Y169.773 E5.99688
G1 X141.961 Y170.09 E6.01734
G1 X140.798 Y170.698 E6.06099
G1 X140.05 Y171.034 E6.08826
G1 X139.416 Y171.301 E6.11114
G1 X138.291 Y171.694 E6.15077
G1 X137.935 Y171.797 E6.1631
G1 X137.178 Y171.995 E6.18913
G1 X136.171 Y172.202 E6.22332
G1 X135.548 Y172.3 E6.2443
G1 X134.609 Y172.407 E6.27573
G1 X133.825 Y172.462 E6.30187
G1 X133.414 Y172.483 E6.31556
G1 X132.811 Y172.497 E6.33562
G1 X102.708 Y172.5 E7.33685
G1 X101.571 Y172.482 E7.37467
G1 X101.046 Y172.461 E7.39214
G1 X100.582 Y172.431 E7.40761
G1 X99.697 Y172.338 E7.43721
G1 X99.066 Y172.242 E7.45844
G1 X98.61 Y172.163 E7.47383
G1 X97.749 Y171.977 E7.50313
G1 X97.142 Y171.816 E7.52401
G1 X96.663 Y171.677 E7.5406
G1 X95.593 Y171.306 E7.57827
G1 X94.891 Y171.015 E7.60354
G1 X94.302 Y170.754 E7.62497
G1 X93.461 Y170.338 E7.65618
G1 X93.047 Y170.098 E7.67209
G1 X92.341 Y169.663 E7.69967
G1 X91.764 Y169.286 E7.7226
G1 X91.002 Y168.74 E7.75378
G1 X90.586 Y168.398 E7.77169
G1 X90.187 Y168.053 E7.78923
G1 X89.467 Y167.396 E7.82165
G1 X88.805 Y166.732 E7.85284
G1 X88.43 Y166.299 E7.87189
G1 X87.818 Y165.547 E7.90414
G1 X87.466 Y165.089 E7.92335
G1 X86.927 Y164.322 E7.95453
G1 X86.613 Y163.801 E7.97476
G1 X86.255 Y163.168 E7.99895
G1 X85.844 Y162.394 E8.0281
G1 X85.445 Y161.545 E8.0593
G1 X85.242 Y161.023 E8.07793
G1 X84.96 Y160.227 E8.10601
G1 X84.776 Y159.666 E8.12565
G1 X84.427 Y158.322 E8.17183
G1 X84.285 Y157.586 E8.19677
G1 X84.126 Y156.434 E8.23544
G1 X84.064 Y155.705 E8.25978
G1 X84.026 Y154.987 E8.28369
G1 X84 Y153.538 E8.33189
G1 X84.001 Y81.058 E10.74259
G0 F6000 X84.401 Y81.063
G1 F1200 X84.409 Y80.474 E10.76218
G1 X84.447 Y79.52 E10.79394
G1 X84.492 Y78.864 E10.81581
G1 X84.577 Y78.109 E10.84108
G1 X84.688 Y77.413 E10.86452
G1 X84.777 Y76.937 E10.88062
G1 X85.024 Y75.903 E10.91598
G1 X85.229 Y75.22 E10.9397
G1 X85.387 Y74.735 E10.95667
G1 X85.858 Y73.541 E10.99936
G1 X86.214 Y72.777 E11.02739
G1 X86.547 Y72.11 E11.05219
G1 X87.174 Y71.041 E11.09341
G1 X87.639 Y70.361 E11.12081
G1 X88.043 Y69.805 E11.14366
G1 X88.792 Y68.887 E11.18307
G1 X89.387 Y68.252 E11.21201
G1 X89.87 Y67.769 E11.23473
G1 X90.859 Y66.896 E11.27861
G1 X91.555 Y66.363 E11.30777
G1 X92.122 Y65.954 E11.33102
G1 X92.891 Y65.449 E11.36162
G1 X93.318 Y65.207 E11.37794
G1 X93.753 Y64.974 E11.39436
G1 X94.568 Y64.567 E11.42465
G1 X95.697 Y64.092 E11.46539
G1 X96.49 Y63.811 E11.49338
G1 X97.161 Y63.594 E11.51683
G1 X98.268 Y63.316 E11.55479
G1 X98.782 Y63.216 E11.57221
G1 X99.491 Y63.096 E11.59613
G1 X100.411 Y62.989 E11.62693
G1 X100.98 Y62.948 E11.64591
G1 X101.601 Y62.917 E11.66659
G1 X102.676 Y62.9 E11.70235
G1 X132.293 Y62.9 E12.68741
G1 X133.31 Y62.913 E12.72124
G1 X133.818 Y62.932 E12.73815
G1 X134.336 Y62.964 E12.75541
G1 X135.261 Y63.062 E12.78635
G1 X135.759 Y63.137 E12.8031
G1 X136.546 Y63.277 E12.82968
G1 X137.554 Y63.515 E12.86413
G1 X138.247 Y63.721 E12.88818
G1 X138.875 Y63.926 E12.91015
G1 X140.082 Y64.404 E12.95333
G1 X140.784 Y64.739 E12.9792
G1 X141.386 Y65.045 E13.00166
G1 X142.552 Y65.735 E13.04672
G1 X143.248 Y66.217 E13.07488
G1 X143.721 Y66.565 E13.09441
G1 X144.645 Y67.329 E13.13429
G1 X145.151 Y67.798 E13.15724
G1 X145.669 Y68.306 E13.18137
G1 X146.471 Y69.204 E13.22141
G1 X146.902 Y69.746 E13.24444
G1 X147.327 Y70.309 E13.26791
G1 X147.81 Y71.014 E13.29633
G1 X148.207 Y71.672 E13.32189
G1 X148.53 Y72.247 E13.34383
G1 X149.022 Y73.242 E13.38074
G1 X149.222 Y73.706 E13.39755
G1 X149.476 Y74.353 E13.42067
G1 X149.648 Y74.837 E13.43775
G1 X149.885 Y75.592 E13.46407
G1 X150.017 Y76.075 E13.48072
G1 X150.191 Y76.793 E13.5053
G1 X150.324 Y77.469 E13.52821
G1 X150.396 Y77.912 E13.54314
G1 X150.484 Y78.592 E13.56594
G1 X150.519 Y78.954 E13.57804
G1 X150.555 Y79.455 E13.59475
G1 X150.584 Y80.159 E13.61818
G1 X150.599 Y81.142 E13.65088
G1 X150.598 Y153.929 E16.07179
G1 X150.579 Y155.025 E16.10824
G1 X150.553 Y155.615 E16.12789
G1 X150.529 Y155.943 E16.13883
G1 X150.461 Y156.593 E16.16056
G1 X150.389 Y157.124 E16.17839
G1 X150.244 Y157.965 E16.20677
G1 X150.104 Y158.598 E16.22833
G1 X150.022 Y158.921 E16.23942
G1 X149.853 Y159.515 E16.25996
G1 X149.673 Y160.083 E16.27977
G1 X149.485 Y160.631 E16.29904
G1 X149.099 Y161.579 E16.33309
G1 X148.798 Y162.226 E16.35682
G1 X148.27 Y163.219 E16.39423
G1 X147.947 Y163.756 E16.41507
G1 X147.61 Y164.29 E16.43607
G1 X146.895 Y165.274 E16.47653
G1 X146.522 Y165.73 E16.49612
G1 X145.968 Y166.374 E16.52438
G1 X145.165 Y167.202 E16.56274
G1 X144.56 Y167.746 E16.5898
G1 X143.971 Y168.242 E16.61541
G1 X142.953 Y169 E16.65763
G1 X142.282 Y169.43 E16.68413
G1 X141.755 Y169.747 E16.70459
G1 X140.634 Y170.333 E16.74666
G1 X139.886 Y170.669 E16.77393
G1 X139.264 Y170.931 E16.79638
G1 X138.18 Y171.309 E16.83456
G1 X137.495 Y171.502 E16.85823
G1 X137.079 Y171.608 E16.87251
G1 X136.109 Y171.807 E16.90545
G1 X135.486 Y171.905 E16.92642
G1 X134.581 Y172.008 E16.95672
G1 X133.797 Y172.063 E16.98286
G1 X133.401 Y172.083 E16.99605
G1 X132.811 Y172.097 E17.01567
G1 X102.529 Y172.099 E18.02286
G1 X101.578 Y172.083 E18.05449
G1 X101.072 Y172.062 E18.07134
G1 X100.608 Y172.032 E18.0868
G1 X99.755 Y171.942 E18.11533
G1 X99.407 Y171.891 E18.12703
G1 X98.679 Y171.768 E18.15158
G1 X97.848 Y171.59 E18.17985
G1 X97.254 Y171.432 E18.20029
G1 X96.775 Y171.293 E18.21688
G1 X95.744 Y170.935 E18.25318
G1 X95.053 Y170.649 E18.27806
G1 X94.464 Y170.388 E18.29948
G1 X93.254 Y169.756 E18.34489
G1 X92.56 Y169.328 E18.37201
G1 X91.983 Y168.951 E18.39493
G1 X91.235 Y168.414 E18.42556
G1 X90.848 Y168.095 E18.44224
G1 X90.198 Y167.526 E18.47097
G1 X89.738 Y167.102 E18.49178
G1 X89.089 Y166.449 E18.5224
G1 X88.739 Y166.045 E18.54018
G1 X88.135 Y165.303 E18.572
G1 X87.783 Y164.845 E18.59121
G1 X87.255 Y164.092 E18.6218
G1 X86.961 Y163.604 E18.64075
G1 X86.603 Y162.971 E18.66494
G1 X86.198 Y162.208 E18.69367
G1 X85.807 Y161.375 E18.72427
G1 X85.618 Y160.888 E18.74165
G1 X85.34 Y160.103 E18.76935
G1 X85.156 Y159.542 E18.78898
G1 X84.82 Y158.246 E18.83351
G1 X84.678 Y157.51 E18.85844
G1 X84.524 Y156.4 E18.89572
G1 X84.462 Y155.671 E18.92005
G1 X84.426 Y154.979 E18.9431
G1 X84.4 Y153.538 E18.99103
G1 X84.401 Y81.063 E21.40156
G0 F6000 X84.801 Y81.068
G1 F1200 X84.818 Y80.158 E21.43183
G1 X84.846 Y79.538 E21.45248
G1 X84.89 Y78.895 E21.47391
G1 X84.972 Y78.168 E21.49825
G1 X85.081 Y77.486 E21.52122
G1 X85.17 Y77.01 E21.53732
G1 X85.408 Y76.015 E21.57135
G1 X85.52 Y75.633 E21.58459
G1 X85.768 Y74.859 E21.61162
G1 X86.22 Y73.71 E21.65269
G1 X86.576 Y72.946 E21.68072
G1 X86.903 Y72.292 E21.70504
G1 X87.507 Y71.264 E21.7447
G1 X87.962 Y70.596 E21.77158
G1 X88.366 Y70.04 E21.79444
G1 X89.087 Y69.157 E21.83236
G1 X89.351 Y68.868 E21.84538
G1 X89.67 Y68.535 E21.86071
G1 X90.153 Y68.052 E21.88343
G1 X91.104 Y67.211 E21.92566
G1 X91.495 Y66.907 E21.94213
G1 X92.356 Y66.279 E21.97757
G1 X93.111 Y65.783 E22.00762
G1 X93.507 Y65.56 E22.02274
G1 X94.265 Y65.161 E22.05123
G1 X94.744 Y64.926 E22.06897
G1 X95.83 Y64.469 E22.10816
G1 X96.623 Y64.188 E22.13614
G1 X97.279 Y63.976 E22.15907
G1 X98.344 Y63.709 E22.19559
G1 X99.187 Y63.55 E22.22412
G1 X99.554 Y63.491 E22.23649
G1 X100.44 Y63.388 E22.26615
G1 X101.009 Y63.347 E22.28513
G1 X101.617 Y63.317 E22.30537
G1 X102.676 Y63.3 E22.3406
G1 X132.293 Y63.3 E23.32567
G1 X133.305 Y63.313 E23.35933
G1 X133.793 Y63.331 E23.37557
G1 X134.311 Y63.363 E23.39283
G1 X135.201 Y63.458 E23.4226
G1 X136.035 Y63.589 E23.45068
G1 X136.473 Y63.67 E23.4655
G1 X137.443 Y63.899 E23.49865
G1 X138.123 Y64.102 E23.52225
G1 X138.751 Y64.307 E23.54422
G1 X139.912 Y64.766 E23.58574
G1 X140.603 Y65.095 E23.6112
G1 X141.205 Y65.401 E23.63366
G1 X142.327 Y66.065 E23.67702
G1 X143.011 Y66.539 E23.7047
G1 X143.484 Y66.887 E23.72423
G1 X144.373 Y67.622 E23.7626
G1 X144.879 Y68.091 E23.78554
G1 X145.386 Y68.589 E23.80918
G1 X146.158 Y69.452 E23.84769
G1 X146.589 Y69.994 E23.87073
G1 X147.006 Y70.547 E23.89376
G1 X147.47 Y71.227 E23.92114
G1 X147.858 Y71.867 E23.94604
G1 X148.181 Y72.442 E23.96797
G1 X148.655 Y73.401 E24.00355
G1 X148.855 Y73.865 E24.02036
G1 X149.099 Y74.486 E24.04255
G1 X149.271 Y74.97 E24.05963
G1 X149.499 Y75.697 E24.08497
G1 X149.631 Y76.18 E24.10163
G1 X149.801 Y76.883 E24.12568
G1 X149.929 Y77.533 E24.14772
G1 X150.001 Y77.976 E24.16264
G1 X150.086 Y78.63 E24.18458
G1 X150.156 Y79.475 E24.21278
G1 X150.184 Y80.165 E24.23575
G1 X150.199 Y81.148 E24.26845
G1 X150.198 Y153.922 E26.68892
G1 X150.179 Y155.018 E26.72538
G1 X150.154 Y155.585 E26.74426
G1 X150.13 Y155.913 E26.75519
G1 X150.065 Y156.54 E26.77616
G1 X149.993 Y157.071 E26.79398
G1 X149.851 Y157.891 E26.82166
G1 X149.716 Y158.5 E26.84241
G1 X149.634 Y158.823 E26.85349
G1 X149.471 Y159.394 E26.87324
G1 X149.291 Y159.962 E26.89306
G1 X149.108 Y160.498 E26.9119
G1 X148.736 Y161.41 E26.94466
G1 X148.435 Y162.057 E26.96839
G1 X147.928 Y163.012 E27.00435
G1 X147.605 Y163.549 E27.0252
G1 X147.273 Y164.074 E27.04586
G1 X146.585 Y165.021 E27.08479
G1 X146.014 Y165.713 E27.11463
G1 X145.667 Y166.112 E27.13222
G1 X144.894 Y166.908 E27.16912
G1 X144.302 Y167.44 E27.19559
G1 X143.713 Y167.936 E27.2212
G1 X142.734 Y168.665 E27.2618
G1 X142.076 Y169.088 E27.28782
G1 X141.549 Y169.405 E27.30827
G1 X140.471 Y169.968 E27.34872
G1 X139.723 Y170.304 E27.376
G1 X139.112 Y170.561 E27.39804
G1 X138.069 Y170.925 E27.43479
G1 X137.397 Y171.114 E27.458
G1 X136.981 Y171.22 E27.47228
G1 X136.047 Y171.412 E27.504
G1 X135.424 Y171.51 E27.52497
G1 X134.553 Y171.609 E27.55413
G1 X133.388 Y171.684 E27.59296
G1 X132.811 Y171.697 E27.61215
G1 X102.535 Y171.699 E28.61914
G1 X101.584 Y171.683 E28.65077
G1 X101.098 Y171.663 E28.66695
G1 X100.634 Y171.633 E28.68242
G1 X99.813 Y171.546 E28.70987
G1 X99.203 Y171.453 E28.7304
G1 X98.747 Y171.374 E28.74579
G1 X97.948 Y171.203 E28.77297
G1 X97.365 Y171.048 E28.79303
G1 X96.886 Y170.909 E28.80962
G1 X95.894 Y170.565 E28.84454
G1 X95.512 Y170.41 E28.85825
G1 X94.626 Y170.022 E28.89042
G1 X93.462 Y169.414 E28.9341
G1 X92.779 Y168.993 E28.96079
G1 X92.202 Y168.616 E28.98371
G1 X91.468 Y168.089 E29.01376
G1 X91.11 Y167.793 E29.02921
G1 X90.469 Y167.232 E29.05755
G1 X90.009 Y166.808 E29.07835
G1 X89.373 Y166.167 E29.10839
G1 X89.047 Y165.791 E29.12494
G1 X88.665 Y165.327 E29.14493
G1 X88.101 Y164.602 E29.17548
G1 X87.583 Y163.862 E29.20552
G1 X87.31 Y163.407 E29.22317
G1 X86.791 Y162.48 E29.25851
G1 X86.552 Y162.023 E29.27566
G1 X86.17 Y161.205 E29.30569
G1 X85.994 Y160.752 E29.32185
G1 X85.815 Y160.255 E29.33942
G1 X85.536 Y159.417 E29.3688
G1 X85.213 Y158.17 E29.41164
G1 X85.071 Y157.434 E29.43657
G1 X84.923 Y156.366 E29.47243
G1 X84.861 Y155.637 E29.49677
G1 X84.826 Y154.971 E29.51895
G1 X84.8 Y153.538 E29.56662
G1 X84.801 Y81.068 E31.97698
G1 F2700 E26.97698
G0 F6000 X126.377 Y83.75
G1 F2700 E31.97698
G1 F1200 X127.25 Y83.75 E32.00602
G1 X127.25 Y150.25 E34.21782
G1 X126.36 Y150.25 E34.24742
G1 X126.432 Y150.108 E34.25271
G1 X126.529 Y149.742 E34.26531
G1 X126.55 Y149.468 E34.27445
G1 X126.55 Y84.532 E36.43423
G1 X126.51 Y84.155 E36.44684
G1 X126.377 Y83.75 E36.46101
G0 F6000 X125.548 Y83.35
G1 F1200 X127.65 Y83.35 E36.53093
G1 X127.65 Y150.65 E38.76933
G1 X125.548 Y150.65 E38.83925
G1 X125.74 Y150.458 E38.84828
G1 X125.946 Y150.195 E38.85939
G1 X126.085 Y149.891 E38.87051
G1 X126.15 Y149.468 E38.88474
G1 X126.15 Y84.532 E41.04452
G1 X126.11 Y84.2 E41.05564
G1 X125.993 Y83.888 E41.06673
G1 X125.74 Y83.542 E41.08098
G1 X125.548 Y83.35 E41.09001
G0 F6000 X124.622 Y83.25
G1 F1200 X110.532 Y83.25 E41.55865
G1 X110.253 Y83.29 E41.56802
G1 X109.934 Y83.434 E41.57967
G1 X109.543 Y83.825 E41.59806
G1 X109.374 Y84.051 E41.60744
G1 X109.25 Y84.378 E41.61907
G1 X109.25 Y149.468 E43.78398
G1 X109.29 Y149.747 E43.79335
G1 X109.434 Y150.066 E43.80499
G1 X109.825 Y150.457 E43.82338
G1 X110.051 Y150.626 E43.83277
G1 X110.378 Y150.75 E43.8444
G1 X124.468 Y150.75 E44.31304
G1 X124.747 Y150.71 E44.32241
G1 X125.066 Y150.566 E44.33405
G1 X125.457 Y150.175 E44.35244
G1 X125.626 Y149.949 E44.36183
G1 X125.75 Y149.622 E44.37346
G1 X125.75 Y84.532 E46.53836
G1 X125.71 Y84.253 E46.54774
G1 X125.566 Y83.934 E46.55938
G1 X125.175 Y83.543 E46.57777
G1 X124.949 Y83.374 E46.58716
G1 X124.622 Y83.25 E46.59879
G0 F6000 X124.468 Y83.65
G1 F1200 X110.532 Y83.65 E47.0623
G1 X110.317 Y83.69 E47.06957
G1 X110.108 Y83.826 E47.07787
G1 X109.826 Y84.108 E47.09113
